verlab/bioloid_common/walker_controller/src/ddpg2/trajectory_file.csv
r_shoulder_swing_joint	l_shoulder_swing_joint	r_shoulder_lateral_joint	l_shoulder_lateral_joint	r_elbow_joint	l_elbow_joint	r_hip_twist_joint	l_hip_twist_joint	r_hip_lateral_joint	l_hip_lateral_joint	r_hip_swing_joint	l_hip_swing_joint	r_knee_joint	l_knee_joint	r_ankle_swing_joint	l_ankle_swing_joint	r_ankle_lateral_joint	l_ankle_lateral_joint
0.0018720443990146278	-0.0005311100798245024	-1.2103304593225062e-05	-0.00012988109047018526	1.8767936725616607e-05	9.918717496670837e-05	-3.017248458636601e-05	-3.77835627052292e-06	0.0	-0.3444387673286748	0.0	0.0	-0.078435480231886	0.0	61	63	0.0015911740203037004	0.3072080712350491
-0.0002925684297097691	-0.0007611858164472679	-1.2103304593225062e-05	-0.00012988109047018526	1.8767936725616607e-05	9.918717496670837e-05	-3.017248458636601e-05	-3.77835627052292e-06	0.0	-0.3444387673286748	0.0	0.0	-0.078435480231886	0.0	62	64	0.005314627251696843	0.3121443501304966
-0.010446397850989601	-0.00046630675160959335	-1.2103304593225062e-05	-0.00012988109047018526	1.8767936725616607e-05	9.918717496670837e-05	-3.017248458636601e-05	-3.77835627052292e-06	0.0	-0.3444387673286748	0.0	0.0	-0.078435480231886	0.0	63	65	0.005314627251696843	0.3121443501304966
-0.010446397850989601	-0.00046630675160959335	-1.2103304593225062e-05	-0.00012988109047018526	1.8767936725616607e-05	9.918717496670837e-05	-3.017248458636601e-05	-3.77835627052292e-06	0.0	-0.3444387673286748	0.0	0.0	-0.078435480231886	0.0	64	66	0.005314627251696843	0.3121443501304966
-0.026859247007269483	-0.00043435764624773205	0.8251720609495861	0.013936713695536618	-0.005275045113639187	0.00015053527033259684	-0.002606632580016033	0.5566751066510518	2.605834846234806	-0.10399424812668223	-0.0028387233478891494	0.06885030805123289	-0.058402520538508404	5.826792516490254	65	67	0.012717138433025254	0.3042279378757723
-0.07262714607337326	-0.002801330516132578	0.8251720609495861	0.013936713695536618	-0.005275045113639187	0.00015053527033259684	-0.002606632580016033	0.5566751066510518	2.605834846234806	-0.10399424812668223	-0.0028387233478891494	0.06885030805123289	-0.058402520538508404	5.826792516490254	66	68	0.012717138433025254	0.3042279378757723
-0.09190508792000116	-0.004525493295083195	0.10586502363194139	-0.0073748446285106795	-0.03184935280583545	0.0008746583549319453	0.003065860872912829	0.5488048019634828	-8.172071791388696	-0.20956443594837304	-0.805305364128852	-0.03225528162787457	0.4544903309171027	-5.916710790229676	67	69	0.012717138433025254	0.3042279378757723
-0.10282786489222759	-0.006719093727092509	-0.062496967531328274	-0.010746844818586787	-0.040339867465593926	0.0004876796176374043	0.011712521835797851	0.43869913599561805	-8.928439996548637	-0.07360251320526423	-0.012413297155587033	-0.007135414586626226	0.3780934866567177	-5.620598176789977	68	70	0.02248826641650152	0.3108470459998029
-0.10580387157429193	-0.009672248696871416	-0.062496967531328274	-0.010746844818586787	-0.040339867465593926	0.0004876796176374043	0.011712521835797851	0.43869913599561805	-8.928439996548637	-0.07360251320526423	-0.012413297155587033	-0.007135414586626226	0.3780934866567177	-5.620598176789977	69	71	0.02248826641650152	0.3108470459998029
-0.10682510746874956	-0.011918774195826768	-0.062496967531328274	-0.010746844818586787	-0.040339867465593926	0.0004876796176374043	0.011712521835797851	0.43869913599561805	-8.928439996548637	-0.07360251320526423	-0.012413297155587033	-0.007135414586626226	0.3780934866567177	-5.620598176789977	70	72	0.02248826641650152	0.3108470459998029
-0.10854699580853668	-0.014169705508865605	-0.3616891453971043	-0.0005052343568419104	0.005925626934673467	-0.001643073127602257	0.02262019347802724	0.35293742336674594	5.692918565491622	0.32780267720401807	-0.07883500821636688	-0.08385217222284663	-0.049693265489086105	1.6742672303165942	71	73	0.0012037981212109205	0.3196038933108755
-0.10120209719343887	-0.016856903367607378	-0.3616891453971043	-0.0005052343568419104	0.005925626934673467	-0.001643073127602257	0.02262019347802724	0.35293742336674594	5.692918565491622	0.32780267720401807	-0.07883500821636688	-0.08385217222284663	-0.049693265489086105	1.6742672303165942	72	74	0.0012037981212109205	0.3196038933108755
-0.09273974286193098	-0.02133585827153386	0.4408495506187755	-0.009519151882322774	-0.003120497221301477	0.003638721367906328	-0.016298500788795245	0.8167938693538845	4.39541486910671	0.15321397952894938	0.1403559660364459	0.0763646792766852	-0.5618765511805143	5.632826703948267	74	76	-0.00527627921724054	0.30907498813175077
-0.08901133171115559	-0.026022105544726292	0.4408495506187755	-0.009519151882322774	-0.003120497221301477	0.003638721367906328	-0.016298500788795245	0.8167938693538845	4.39541486910671	0.15321397952894938	0.1403559660364459	0.0763646792766852	-0.5618765511805143	5.632826703948267	74	76	-0.00527627921724054	0.30907498813175077
-0.08537107187513579	-0.03003025781293018	0.4408495506187755	-0.009519151882322774	-0.003120497221301477	0.003638721367906328	-0.016298500788795245	0.8167938693538845	4.39541486910671	0.15321397952894938	0.1403559660364459	0.0763646792766852	-0.5618765511805143	5.632826703948267	76	78	-0.00527627921724054	0.30907498813175077
-0.07821005898257934	-0.035586881940141264	0.8169625804632981	0.0028304775381293723	-0.007884125971930445	-0.005021732329629103	-0.024526854311964108	1.1219750921934306	3.4150369810265815	-0.31550603426957197	0.11914960267985752	-0.05600013410037177	0.4971349602711356	1.556732017422987	77	79	-0.02448771644664036	0.30690979721957107
-0.07812933240013066	-0.03741723306082951	0.8169625804632981	0.0028304775381293723	-0.007884125971930445	-0.005021732329629103	-0.024526854311964108	1.1219750921934306	3.4150369810265815	-0.31550603426957197	0.11914960267985752	-0.05600013410037177	0.4971349602711356	1.556732017422987	78	80	-0.02448771644664036	0.30690979721957107
-0.07812933240013066	-0.03741723306082951	0.8169625804632981	0.0028304775381293723	-0.007884125971930445	-0.005021732329629103	-0.024526854311964108	1.1219750921934306	3.4150369810265815	-0.31550603426957197	0.11914960267985752	-0.05600013410037177	0.4971349602711356	1.556732017422987	79	81	-0.02448771644664036	0.30690979721957107
-0.08059485517503809	-0.039119134612551586	0.9233910699719061	0.008252381316429691	0.010285998940547714	0.0004899327893372885	0.035414171681627415	0.8494807900232377	-0.051608762915960504	0.10046841436606219	-0.03603937217498304	0.04597036681683787	0.3440854017716666	-5.232777549334294	79	81	-0.020537692147207125	0.307310230840056
-0.08407506566846136	-0.040966266729481886	0.9233910699719061	0.008252381316429691	0.010285998940547714	0.0004899327893372885	0.035414171681627415	0.8494807900232377	-0.051608762915960504	0.10046841436606219	-0.03603937217498304	0.04597036681683787	0.3440854017716666	-5.232777549334294	80	82	-0.020537692147207125	0.307310230840056
-0.08407506566846136	-0.040966266729481886	0.9233910699719061	0.008252381316429691	0.010285998940547714	0.0004899327893372885	0.035414171681627415	0.8494807900232377	-0.051608762915960504	0.10046841436606219	-0.03603937217498304	0.04597036681683787	0.3440854017716666	-5.232777549334294	80	82	-0.020537692147207125	0.307310230840056
-0.08819790935093375	-0.0432540285275123	0.9233910699719061	0.008252381316429691	0.010285998940547714	0.0004899327893372885	0.035414171681627415	0.8494807900232377	-0.051608762915960504	0.10046841436606219	-0.03603937217498304	0.04597036681683787	0.3440854017716666	-5.232777549334294	81	83	-0.020537692147207125	0.307310230840056
-0.08819790935093375	-0.0432540285275123	1.0292220428425232	-0.002687073976345822	-0.01440518599687124	0.0009638740469810614	0.011004727330440112	0.31183453338258715	4.889432668630523	-0.28677989780667446	-1.2552332894032185	0.20706190816365105	-0.37132801764214723	-0.7539919792309404	82	84	-0.020537692147207125	0.307310230840056
-0.0870756388019688	-0.04703113718818971	1.0379973933312616	-0.009568998464541956	-0.03952059248018003	0.00394808900970034	0.0035444423970263372	0.21877666488296832	-1.4275063457647255	-0.30656718496794305	-1.0082436426142487	0.08650405164824704	-0.37317702407031017	-5.992413852981881	82	84	-0.007482598572791823	0.31197082285569855
-0.0765811187193214	-0.05298370486063857	1.0379973933312616	-0.009568998464541956	-0.03952059248018003	0.00394808900970034	0.0035444423970263372	0.21877666488296832	-1.4275063457647255	-0.30656718496794305	-1.0082436426142487	0.08650405164824704	-0.37317702407031017	-5.992413852981881	83	85	-0.017616383921996985	0.3177405651353652
-0.0765811187193214	-0.05298370486063857	1.0379973933312616	-0.009568998464541956	-0.03952059248018003	0.00394808900970034	0.0035444423970263372	0.21877666488296832	-1.4275063457647255	-0.30656718496794305	-1.0082436426142487	0.08650405164824704	-0.37317702407031017	-5.992413852981881	84	86	-0.017616383921996985	0.3177405651353652
-0.06581229086852172	-0.05901247300224094	1.0379973933312616	-0.009568998464541956	-0.03952059248018003	0.00394808900970034	0.0035444423970263372	0.21877666488296832	-1.4275063457647255	-0.30656718496794305	-1.0082436426142487	0.08650405164824704	-0.37317702407031017	-5.992413852981881	84	86	-0.017616383921996985	0.3177405651353652
-0.06581229086852172	-0.05901247300224094	0.9221296735695077	-0.0007737216342418307	-0.011882939220317468	0.0021351501682973506	-0.007703598288895996	-1.4025101186199151e-05	-0.4273713052317414	0.5922565566270188	1.266394533165501	-0.18196439926240626	0.007362827271523709	0.0034720066471971567	84	86	-0.017616383921996985	0.3177405651353652
-0.06022365629470435	-0.06408550826919437	0.9221296735695077	-0.0007737216342418307	-0.011882939220317468	0.0021351501682973506	-0.007703598288895996	-1.4025101186199151e-05	-0.4273713052317414	0.5922565566270188	1.266394533165501	-0.18196439926240626	0.007362827271523709	0.0034720066471971567	85	87	-0.03842255141176493	0.3241945970675026
-0.06022365629470435	-0.06408550826919437	0.9221296735695077	-0.0007737216342418307	-0.011882939220317468	0.0021351501682973506	-0.007703598288895996	-1.4025101186199151e-05	-0.4273713052317414	0.5922565566270188	1.266394533165501	-0.18196439926240626	0.007362827271523709	0.0034720066471971567	86	88	-0.03842255141176493	0.3241945970675026
-0.058261371229123546	-0.06842677418442535	0.9221296735695077	-0.0007737216342418307	-0.011882939220317468	0.0021351501682973506	-0.007703598288895996	-1.4025101186199151e-05	-0.4273713052317414	0.5922565566270188	1.266394533165501	-0.18196439926240626	0.007362827271523709	0.0034720066471971567	86	88	-0.03842255141176493	0.3241945970675026
-0.047887384083886736	-0.0742964304189962	1.0403962250304408	0.006204395077176628	0.0071712602208746645	-0.004888738320512509	-0.007956563251506843	0.0021292079878305614	0.9864718819004885	-0.7517365683099626	-0.8186558334346451	0.22604037210307668	-0.09259836121372633	0.5903401739315413	87	89	-0.03842255141176493	0.3241945970675026
-0.047887384083886736	-0.0742964304189962	1.0403962250304408	0.006204395077176628	0.0071712602208746645	-0.004888738320512509	-0.007956563251506843	0.0021292079878305614	0.9864718819004885	-0.7517365683099626	-0.8186558334346451	0.22604037210307668	-0.09259836121372633	0.5903401739315413	87	89	-0.040102640112385055	0.32574242811587284
-0.029992282045747873	-0.08045487099083953	1.0403962250304408	0.006204395077176628	0.0071712602208746645	-0.004888738320512509	-0.007956563251506843	0.0021292079878305614	0.9864718819004885	-0.7517365683099626	-0.8186558334346451	0.22604037210307668	-0.09259836121372633	0.5903401739315413	88	90	-0.040102640112385055	0.32574242811587284
-0.014866578533175108	-0.0851942122751623	1.0403962250304408	0.006204395077176628	0.0071712602208746645	-0.004888738320512509	-0.007956563251506843	0.0021292079878305614	0.9864718819004885	-0.7517365683099626	-0.8186558334346451	0.22604037210307668	-0.09259836121372633	0.5903401739315413	89	91	-0.040102640112385055	0.32574242811587284
-0.014866578533175108	-0.0851942122751623	0.9342061051082338	-0.006268054427033043	-0.008672979948783244	0.0030368362152435324	-0.0008342825512412944	0.012604131253057815	0.8931507935457571	0.8666317488309011	0.6673019178991492	-0.14831439570634009	0.3428240562296166	-0.6494635246705566	89	91	-0.040102640112385055	0.32574242811587284
-0.0038998973672321625	-0.08979400739815256	0.9342061051082338	-0.006268054427033043	-0.008672979948783244	0.0030368362152435324	-0.0008342825512412944	0.012604131253057815	0.8931507935457571	0.8666317488309011	0.6673019178991492	-0.14831439570634009	0.3428240562296166	-0.6494635246705566	90	92	-0.04929512226509262	0.3278348019808161
-0.0038998973672321625	-0.08979400739815256	0.9342061051082338	-0.006268054427033043	-0.008672979948783244	0.0030368362152435324	-0.0008342825512412944	0.012604131253057815	0.8931507935457571	0.8666317488309011	0.6673019178991492	-0.14831439570634009	0.3428240562296166	-0.6494635246705566	90	92	-0.04929512226509262	0.3278348019808161
0.0029115280590410147	-0.09553430906064753	0.9342061051082338	-0.006268054427033043	-0.008672979948783244	0.0030368362152435324	-0.0008342825512412944	0.012604131253057815	0.8931507935457571	0.8666317488309011	0.6673019178991492	-0.14831439570634009	0.3428240562296166	-0.6494635246705566	91	93	-0.04929512226509262	0.3278348019808161
0.0029115280590410147	-0.09553430906064753	1.0524815201505957	0.0063139697262109	-0.011377514152845158	-0.000315115754164097	0.007965811591241767	-2.4814202630452087e-06	-0.7552854092712904	-0.3199552618780763	-0.2831500811407315	0.09157693219371921	-0.12254097881716464	0.00067140297385887	91	93	-0.04929512226509262	0.3278348019808161
0.00344403128650081	-0.10162413545342054	1.0524815201505957	0.0063139697262109	-0.011377514152845158	-0.000315115754164097	0.007965811591241767	-2.4814202630452087e-06	-0.7552854092712904	-0.3199552618780763	-0.2831500811407315	0.09157693219371921	-0.12254097881716464	0.00067140297385887	92	94	-0.04607473563696257	0.3278954359057351
-0.002922114587521773	-0.10681858482406371	1.0524815201505957	0.0063139697262109	-0.011377514152845158	-0.000315115754164097	0.007965811591241767	-2.4814202630452087e-06	-0.7552854092712904	-0.3199552618780763	-0.2831500811407315	0.09157693219371921	-0.12254097881716464	0.00067140297385887	93	95	-0.04607473563696257	0.3278954359057351
-0.002922114587521773	-0.10681858482406371	1.0524815201505957	0.0063139697262109	-0.011377514152845158	-0.000315115754164097	0.007965811591241767	-2.4814202630452087e-06	-0.7552854092712904	-0.3199552618780763	-0.2831500811407315	0.09157693219371921	-0.12254097881716464	0.00067140297385887	93	95	-0.04607473563696257	0.3278954359057351
-0.011174204631911083	-0.11074528318403754	1.0524815201505957	0.0063139697262109	-0.011377514152845158	-0.000315115754164097	0.007965811591241767	-2.4814202630452087e-06	-0.7552854092712904	-0.3199552618780763	-0.2831500811407315	0.09157693219371921	-0.12254097881716464	0.00067140297385887	94	96	-0.04607473563696257	0.3278954359057351
-0.011174204631911083	-0.11074528318403754	0.9794900313768524	0.0013136582782715678	0.0036086128115426774	-0.0023683992783212204	0.0031167863497847392	0.00813865992846452	-0.21101707684691606	-0.21134512860502158	0.025113160482041486	-0.0331797037188149	-0.061397943737427796	0.5740372841200805	94	96	-0.039697514839381845	0.3261489686367649
-0.01660490588003751	-0.11405292774752476	0.9749784557037744	-0.0033519684886380574	0.002091402608261461	-0.0024522508555717693	0.0014808420723158022	0.017343759072955045	-0.17251409659497907	-0.23453711115892217	-0.13688805998736964	0.02166184613441033	-0.0969028901993835	0.5087968005381567	95	97	-0.0351288138021293	0.3250046370036858
-0.01660490588003751	-0.11405292774752476	0.9749784557037744	-0.0033519684886380574	0.002091402608261461	-0.0024522508555717693	0.0014808420723158022	0.017343759072955045	-0.17251409659497907	-0.23453711115892217	-0.13688805998736964	0.02166184613441033	-0.0969028901993835	0.5087968005381567	95	97	-0.0351288138021293	0.3250046370036858
-0.016979580800137332	-0.11753183401296863	0.9749784557037744	-0.0033519684886380574	0.002091402608261461	-0.0024522508555717693	0.0014808420723158022	0.017343759072955045	-0.17251409659497907	-0.23453711115892217	-0.13688805998736964	0.02166184613441033	-0.0969028901993835	0.5087968005381567	96	98	-0.030224465321358696	0.32337800695670954
-0.012330866168944937	-0.12141564203337778	0.9749784557037744	-0.0033519684886380574	0.002091402608261461	-0.0024522508555717693	0.0014808420723158022	0.017343759072955045	-0.17251409659497907	-0.23453711115892217	-0.13688805998736964	0.02166184613441033	-0.0969028901993835	0.5087968005381567	97	99	-0.030224465321358696	0.32337800695670954
-0.012330866168944937	-0.12141564203337778	0.9245574122178377	-0.007610000602779721	-0.007519999924346266	0.0011951043784916848	-0.005457512558961319	0.021957939101893587	-0.46449296300897297	0.14129528964155263	-0.012065549873176429	0.03803449170487219	-0.08935100255662273	0.32367207777836093	97	99	-0.030224465321358696	0.32337800695670954
-0.003870942497813097	-0.12561019460317513	0.9245574122178377	-0.007610000602779721	-0.007519999924346266	0.0011951043784916848	-0.005457512558961319	0.021957939101893587	-0.46449296300897297	0.14129528964155263	-0.012065549873176429	0.03803449170487219	-0.08935100255662273	0.32367207777836093	98	100	-0.017541313054998894	0.32069202208029124
-0.003870942497813097	-0.12561019460317513	0.9245574122178377	-0.007610000602779721	-0.007519999924346266	0.0011951043784916848	-0.005457512558961319	0.021957939101893587	-0.46449296300897297	0.14129528964155263	-0.012065549873176429	0.03803449170487219	-0.08935100255662273	0.32367207777836093	98	100	-0.017541313054998894	0.32069202208029124
0.03001673381321431	-0.13787863530031227	0.9245574122178377	-0.007610000602779721	-0.007519999924346266	0.0011951043784916848	-0.005457512558961319	0.021957939101893587	-0.45236386110279353	-0.29848473930685726	-0.09536976573500477	0.0073826092656889	-0.1113374439348036	0.23744897582752972	100	102	-0.017541313054998894	0.32069202208029124
0.03001673381321431	-0.13787863530031227	0.9529280183118445	-0.00730067357144204	0.0200251685628281	0.002104860887939708	-0.007845693872963189	0.05904886852425406	-0.45236386110279353	-0.29848473930685726	-0.09536976573500477	0.0073826092656889	-0.1113374439348036	0.23744897582752972	100	102	-0.0024156768075797447	0.31830502746387684
0.05930268760483368	-0.14554207347326842	0.9529280183118445	-0.00730067357144204	0.0200251685628281	0.002104860887939708	-0.007845693872963189	0.05904886852425406	-0.45236386110279353	-0.29848473930685726	-0.09536976573500477	0.0073826092656889	-0.1113374439348036	0.23744897582752972	101	103	-0.0024156768075797447	0.31830502746387684
0.09437774486871169	-0.1531110627626223	0.9529280183118445	-0.00730067357144204	0.0200251685628281	0.002104860887939708	-0.007845693872963189	0.05904886852425406	-0.45236386110279353	-0.29848473930685726	-0.09536976573500477	0.0073826092656889	-0.1113374439348036	0.23744897582752972	102	104	-0.0024156768075797447	0.31830502746387684
0.1342839321462942	-0.16061553935736808	0.9308491864703914	-0.0006846816305117187	0.009230645119417957	0.0007563695572150309	-0.007085699485275931	0.07218063463378943	0.30677321088388143	0.13233411247165439	0.07313198321732461	0.008265756238522326	0.16423101209120783	-0.10283591451900342	103	105	-0.0024156768075797447	0.31830502746387684
0.17864509867919703	-0.1682980429353734	0.9308491864703914	-0.0006846816305117187	0.009230645119417957	0.0007563695572150309	-0.007085699485275931	0.07218063463378943	0.30677321088388143	0.13233411247165439	0.07313198321732461	0.008265756238522326	0.16423101209120783	-0.10283591451900342	104	106	0.009006297854885437	0.31254320791723655
0.22496281073337335	-0.17640163191227876	0.9308491864703914	-0.0006846816305117187	0.009230645119417957	0.0007563695572150309	-0.007085699485275931	0.07218063463378943	0.30677321088388143	0.13233411247165439	0.07313198321732461	0.008265756238522326	0.16423101209120783	-0.10283591451900342	105	107	0.009006297854885437	0.31254320791723655
0.27171052470385454	-0.18505018725698508	0.9341583357900607	-0.0017423991078828749	0.0008762864734999098	0.0045889767246452	0.01228562370580466	0.06103625963381898	0.08417662101296886	0.08362145557822087	-0.240885193358781	0.013589725854224133	0.24906676818845663	-0.37191789626849925	106	108	0.009006297854885437	0.31254320791723655
0.27171052470385454	-0.18505018725698508	0.9341583357900607	-0.0017423991078828749	0.0008762864734999098	0.0045889767246452	0.01228562370580466	0.06103625963381898	0.08417662101296886	0.08362145557822087	-0.240885193358781	0.013589725854224133	0.24906676818845663	-0.37191789626849925	106	108	-0.0016848006062272214	0.2895614280536473
0.3150242201293655	-0.19390874134500585	0.9341583357900607	-0.0017423991078828749	0.0008762864734999098	0.0045889767246452	0.01228562370580466	0.06103625963381898	0.08417662101296886	0.08362145557822087	-0.240885193358781	0.013589725854224133	0.24906676818845663	-0.37191789626849925	107	109	-0.0016848006062272214	0.2895614280536473
0.3150242201293655	-0.19390874134500585	0.9341583357900607	-0.0017423991078828749	0.0008762864734999098	0.0045889767246452	0.01228562370580466	0.06103625963381898	0.08417662101296886	0.08362145557822087	-0.240885193358781	0.013589725854224133	0.24906676818845663	-0.37191789626849925	107	109	-0.0016848006062272214	0.2895614280536473
0.35035829862165063	-0.20354827091433111	0.9341583357900607	-0.0017423991078828749	0.0008762864734999098	0.0045889767246452	0.01228562370580466	0.06103625963381898	0.08417662101296886	0.08362145557822087	-0.240885193358781	0.013589725854224133	0.24906676818845663	-0.37191789626849925	108	110	-0.0016848006062272214	0.2895614280536473
0.3783715906200425	-0.21399873963894828	1.1498168874224461	0.016145441128830207	-0.01359947755673474	0.002673268918409022	0.03251999117367976	-0.00010142317486661057	0.8243004671439736	-0.17313923705816125	0.1611604014982253	0.2124645456561881	0.17326626569179537	0.025486029005339528	108	110	0.008524024316364526	0.2527166949132401
0.3783715906200425	-0.21399873963894828	1.1498168874224461	0.016145441128830207	-0.01359947755673474	0.002673268918409022	0.03251999117367976	-0.00010142317486661057	0.8243004671439736	-0.17313923705816125	0.1611604014982253	0.2124645456561881	0.17326626569179537	0.025486029005339528	109	111	0.008524024316364526	0.2527166949132401
0.4009127670554185	-0.22524940900396728	1.1498168874224461	0.016145441128830207	-0.01359947755673474	0.002673268918409022	0.03251999117367976	-0.00010142317486661057	0.8243004671439736	-0.17313923705816125	0.1611604014982253	0.2124645456561881	0.17326626569179537	0.025486029005339528	110	112	0.008524024316364526	0.2527166949132401
0.4009127670554185	-0.22524940900396728	1.1498168874224461	0.016145441128830207	-0.01359947755673474	0.002673268918409022	0.03251999117367976	-0.00010142317486661057	0.8243004671439736	-0.17313923705816125	0.1611604014982253	0.2124645456561881	0.17326626569179537	0.025486029005339528	110	112	0.008524024316364526	0.2527166949132401
0.4159984923458049	-0.2361200343553706	1.0079329393753493	0.007027859643311984	-0.005492816095482134	0.006986362450889239	0.046696985850590345	-7.040160913796001e-06	-2.1164616698482925	0.1552914126028867	-0.28453279259650033	-0.11116474952495015	0.0848137764602861	0.0017518250764030352	111	113	0.012009558356672041	0.22564792379793597
0.42658986611111666	-0.24572652718062607	0.9883665955380101	0.008068090130332273	-0.022601594019051596	0.0009190043684403904	0.05217308840064394	-6.580811993117663e-06	1.0084788120789872	-0.18965355549239232	-0.46742692723043666	-0.17676859763959984	0.22500462807272759	0.0016701178704052744	112	114	0.016860727905896475	0.2123654543360604
0.43739373189432124	-0.2550941702343764	0.9883665955380101	0.008068090130332273	-0.022601594019051596	0.0009190043684403904	0.05217308840064394	-6.580811993117663e-06	1.0084788120789872	-0.18965355549239232	-0.46742692723043666	-0.17676859763959984	0.22500462807272759	0.0016701178704052744	112	114	0.026952764589684156	0.1981146854721823
0.43739373189432124	-0.2550941702343764	0.9883665955380101	0.008068090130332273	-0.022601594019051596	0.0009190043684403904	0.05217308840064394	-6.580811993117663e-06	1.0084788120789872	-0.18965355549239232	-0.46742692723043666	-0.17676859763959984	0.22500462807272759	0.0016701178704052744	113	115	0.026952764589684156	0.1981146854721823
0.44677104954351976	-0.2662701967461186	0.9883665955380101	0.008068090130332273	-0.022601594019051596	0.0009190043684403904	0.05217308840064394	-6.580811993117663e-06	1.0084788120789872	-0.18965355549239232	-0.46742692723043666	-0.17676859763959984	0.22500462807272759	0.0016701178704052744	114	116	0.026952764589684156	0.1981146854721823
0.44677104954351976	-0.2662701967461186	1.0430608787729208	-0.00165726290402457	-0.02941850063935547	-0.0010192209604156233	0.06583090259002855	-2.770145218988773e-06	0.9631067070543629	-0.1934864202692978	0.16857521972462647	0.0639251315370335	0.41726577878729576	0.0007472086042288328	114	116	0.026952764589684156	0.1981146854721823
0.44677104954351976	-0.2662701967461186	1.044306649235903	-0.0033061462619610182	-0.022841977287342274	0.00157514197776365	0.07462749360024556	-2.0015232298220553e-06	-0.705964014406887	0.031650565601850866	0.43999267450449564	0.1697837731471552	0.422108841082774	0.0005644368708306313	114	116	0.026952764589684156	0.1981146854721823
0.4472369946366956	-0.28168055575628886	1.044306649235903	-0.0033061462619610182	-0.022841977287342274	0.00157514197776365	0.07462749360024556	-2.0015232298220553e-06	-0.705964014406887	0.031650565601850866	0.43999267450449564	0.1697837731471552	0.422108841082774	0.0005644368708306313	115	117	0.0488470959810547	0.18185297985169974
0.43947590273566983	-0.295979842271342	1.044306649235903	-0.0033061462619610182	-0.022841977287342274	0.00157514197776365	0.07462749360024556	-2.0015232298220553e-06	-0.705964014406887	0.031650565601850866	0.43999267450449564	0.1697837731471552	0.422108841082774	0.0005644368708306313	115	117	0.0488470959810547	0.18185297985169974
0.43947590273566983	-0.295979842271342	1.044306649235903	-0.0033061462619610182	-0.022841977287342274	0.00157514197776365	0.07462749360024556	-2.0015232298220553e-06	-0.705964014406887	0.031650565601850866	0.43999267450449564	0.1697837731471552	0.422108841082774	0.0005644368708306313	116	118	0.0488470959810547	0.18185297985169974
0.42385196223827887	-0.30725380711196254	0.8693022567246071	0.021815991650327327	0.005940053156903602	0.0029382412562473093	0.007157705307586859	0.02366433276723967	-4.0107663357163865	0.2469723846708064	0.15908030314447985	-0.10684857250283741	-1.613171703276746	0.4227147472884325	117	119	0.06973294294654425	0.17151216830668967
0.42385196223827887	-0.30725380711196254	0.8693022567246071	0.021815991650327327	0.005940053156903602	0.0029382412562473093	0.007157705307586859	0.02366433276723967	-4.0107663357163865	0.2469723846708064	0.15908030314447985	-0.10684857250283741	-1.613171703276746	0.4227147472884325	117	119	0.06973294294654425	0.17151216830668967
0.40184936051251646	-0.3125457174739435	0.8693022567246071	0.021815991650327327	0.005940053156903602	0.0029382412562473093	0.007157705307586859	0.02366433276723967	-4.0107663357163865	0.2469723846708064	0.15908030314447985	-0.10684857250283741	-1.613171703276746	0.4227147472884325	118	120	0.06973294294654425	0.17151216830668967
-0.0017484842509555311	9.854624105270869e-06	0.01659476967611795	0.0055927856617792315	0.0012647432703323247	-0.0014933599754742843	0.0005080011468114876	0.03887548658297124	-0.2702248030403082	0.398244957511893	-0.2307199194299485	-0.052930091362060235	-0.010071558211332224	0.307443815469285	0	0	0.000985197361524165	0.29490384553089083
-0.012307030396242808	0.00020305339478483703	0.01659476967611795	0.0055927856617792315	0.0012647432703323247	-0.0014933599754742843	0.0005080011468114876	0.03887548658297124	-0.2702248030403082	0.398244957511893	-0.2307199194299485	-0.052930091362060235	-0.010071558211332224	0.307443815469285	0	0	0.000985197361524165	0.29490384553089083
-0.012307030396242808	0.00020305339478483703	-0.05871320818053949	0.020558262393143956	-0.0011543991954203747	-0.0006038122734794982	-0.0021918405755529946	-9.398734102106232e-07	-2.2385463243052137	0.13797342934059076	0.02087770046286591	-0.005545521485348998	-0.04652510471343416	0.000347000296964696	0	0	-0.0010997542512142678	0.2948508122343649
-0.03167607334921559	0.0007057859038714458	-0.11227269806777596	0.02026240328195872	-0.0019068426372799152	-0.0006722804281062977	-0.003040041717381037	-7.26826331565178e-07	-3.086266179248628	-0.1366867277660353	-0.08320971446059093	-0.0028040179471770996	-0.037372889914559185	0.00028961311874551796	0	0	-0.0010997542512142678	0.2948508122343649
-0.03167607334921559	0.0007057859038714458	-0.11227269806777596	0.02026240328195872	-0.0019068426372799152	-0.0006722804281062977	-0.003040041717381037	-7.26826331565178e-07	-3.086266179248628	-0.1366867277660353	-0.08320971446059093	-0.0028040179471770996	-0.037372889914559185	0.00028961311874551796	1	0	-0.0010997542512142678	0.2948508122343649
-0.05994539909378048	0.0016823573546501836	-0.11227269806777596	0.02026240328195872	-0.0019068426372799152	-0.0006722804281062977	-0.003040041717381037	-7.26826331565178e-07	-3.086266179248628	-0.1366867277660353	-0.08320971446059093	-0.0028040179471770996	-0.037372889914559185	0.00028961311874551796	2	2	-0.0010997542512142678	0.2948508122343649
-0.09872978539284794	0.003207985126139518	-0.11227269806777596	0.02026240328195872	-0.0019068426372799152	-0.0006722804281062977	-0.003040041717381037	-7.26826331565178e-07	-3.086266179248628	-0.1366867277660353	-0.08320971446059093	-0.0028040179471770996	-0.037372889914559185	0.00028961311874551796	2	2	-0.004861057560117949	0.30325371435383264
-0.14917291415992662	0.005441579197419777	-0.36668046219367323	0.011369815693294427	-0.009657019824731883	-0.0029785744243318035	-0.002255889334979777	0.14189411304215138	-1.6178513818685398	0.13343148619668987	-0.1459803155289032	-0.04936469637117635	0.05424266615344529	2.365492591645949	4	4	-0.004861057560117949	0.30325371435383264
-0.19540069616307737	0.006822670209705719	-0.36668046219367323	0.011369815693294427	-0.009657019824731883	-0.0029785744243318035	-0.002255889334979777	0.14189411304215138	-1.6178513818685398	0.13343148619668987	-0.1459803155289032	-0.04936469637117635	0.05424266615344529	2.365492591645949	5	5	-0.004861057560117949	0.30325371435383264
-0.22868885147547938	0.007451088170491012	-0.40000003668618245	-0.02471845423557184	-0.005845560087561985	0.0009503627282851923	0.008075755262450635	0.4573515222790032	2.42298037145261e-05	-0.3119888350330533	-0.08710516821443089	0.03789253704213533	0.22034709717241635	4.702483051725688	6	6	0.008481962829785788	0.3116373178145845
-0.25292961302527983	0.007544414956330773	-0.40000003668618245	-0.02471845423557184	-0.005845560087561985	0.0009503627282851923	0.008075755262450635	0.4573515222790032	2.42298037145261e-05	-0.3119888350330533	-0.08710516821443089	0.03789253704213533	0.22034709717241635	4.702483051725688	7	7	0.008481962829785788	0.3116373178145845
-0.26740830096227086	0.006727224075963939	-0.40000003668618245	-0.02471845423557184	-0.005845560087561985	0.0009503627282851923	0.008075755262450635	0.4573515222790032	2.42298037145261e-05	-0.3119888350330533	-0.08710516821443089	0.03789253704213533	0.22034709717241635	4.702483051725688	8	8	0.008481962829785788	0.3116373178145845
-0.2718920778837008	0.0045436130863081145	-0.40000003668618245	-0.02471845423557184	-0.005845560087561985	0.0009503627282851923	0.008075755262450635	0.4573515222790032	2.42298037145261e-05	-0.3119888350330533	-0.08710516821443089	0.03789253704213533	0.22034709717241635	4.702483051725688	8	8	0.006191554577190037	0.30447186631247497
-0.2718920778837008	0.0045436130863081145	-0.4000019417550371	-0.0015633678717152932	0.00818895469826586	-0.0001310607629170235	0.005705355907603682	0.6091084765423904	0.0005775042808959796	-0.1196538594070607	-0.007636025020061388	-0.009966823800423408	-0.19072373043139457	-1.9414417240122526	9	9	0.006191554577190037	0.30447186631247497
-0.26609867346268007	0.0014055283192552714	-0.4000019417550371	-0.0015633678717152932	0.00818895469826586	-0.0001310607629170235	0.005705355907603682	0.6091084765423904	0.0005775042808959796	-0.1196538594070607	-0.007636025020061388	-0.009966823800423408	-0.19072373043139457	-1.9414417240122526	9	9	0.006191554577190037	0.30447186631247497
-0.26609867346268007	0.0014055283192552714	-0.4000019417550371	-0.0015633678717152932	0.00818895469826586	-0.0001310607629170235	0.005705355907603682	0.6091084765423904	0.0005775042808959796	-0.1196538594070607	-0.007636025020061388	-0.009966823800423408	-0.19072373043139457	-1.9414417240122526	10	10	0.006191554577190037	0.30447186631247497
-0.25136022300681116	-0.0016989301037157126	-0.4000019417550371	-0.0015633678717152932	0.00818895469826586	-0.0001310607629170235	0.005705355907603682	0.6091084765423904	0.0005775042808959796	-0.1196538594070607	-0.007636025020061388	-0.009966823800423408	-0.19072373043139457	-1.9414417240122526	11	11	-0.021993875957228917	0.30529425658612896
-0.23420253961199564	-0.0042219651062941396	-0.3999671608523112	-0.004922688236645989	-0.006250859739600045	-0.0011052316361510606	-0.006475223771785998	0.14978850160267854	0.010221675555906806	0.4828621129401274	0.06905009613390396	-0.014296108406529867	-0.04170453972911087	-5.93899412682458	11	11	-0.021993875957228917	0.30529425658612896
-0.23420253961199564	-0.0042219651062941396	-0.3989809522022423	0.004183341399019547	-0.003975522980431023	-0.0011564399586321272	-0.006812028224959299	0.03220337967662523	0.3214524121236604	0.3844237599252396	0.13901292838835178	0.0061586002048028	0.010631001802777568	-5.357722923971657	12	12	-0.021993875957228917	0.30529425658612896
-0.2177612466050798	-0.006413115027928067	-0.3989809522022423	0.004183341399019547	-0.003975522980431023	-0.0011564399586321272	-0.006812028224959299	0.03220337967662523	0.3214524121236604	0.3844237599252396	0.13901292838835178	0.0061586002048028	0.010631001802777568	-5.357722923971657	12	12	-0.021993875957228917	0.30529425658612896
-0.2177612466050798	-0.006413115027928067	-0.3989809522022423	0.004183341399019547	-0.003975522980431023	-0.0011564399586321272	-0.006812028224959299	0.03220337967662523	0.3214524121236604	0.3844237599252396	0.13901292838835178	0.0061586002048028	0.010631001802777568	-5.357722923971657	13	13	-0.05167013804507589	0.29524531232664725
-0.20827002589014124	-0.008342941789748256	-0.3989809522022423	0.004183341399019547	-0.003975522980431023	-0.0011564399586321272	-0.006812028224959299	0.03220337967662523	0.3214524121236604	0.3844237599252396	0.13901292838835178	0.0061586002048028	0.010631001802777568	-5.357722923971657	13	13	-0.0680421639068214	0.28836804786218084
-0.20827002589014124	-0.008342941789748256	-0.3000537476832914	0.016674592822258916	0.0009170720066613569	-0.0009475313120095308	-0.002545533130045463	-2.765126417614283e-06	-0.035163440530942225	0.0697229264341448	-0.24642387729601523	-0.005810859676954744	0.14632886190271557	-9.292707523567145e-05	14	14	-0.0680421639068214	0.28836804786218084
-0.20847809783849086	-0.009853897080848465	-0.3000537476832914	0.016674592822258916	0.0009170720066613569	-0.0009475313120095308	-0.002545533130045463	-2.765126417614283e-06	-0.035163440530942225	0.0697229264341448	-0.24642387729601523	-0.005810859676954744	0.14632886190271557	-9.292707523567145e-05	15	15	-0.08579795698406548	0.28137787061210556
-0.21927128929889006	-0.010953305423166023	-0.3000537476832914	0.016674592822258916	0.0009170720066613569	-0.0009475313120095308	-0.002545533130045463	-2.765126417614283e-06	-0.035163440530942225	0.0697229264341448	-0.24642387729601523	-0.005810859676954744	0.14632886190271557	-9.292707523567145e-05	15	15	-0.08579795698406548	0.28137787061210556
-0.21927128929889006	-0.010953305423166023	-0.3721282332584632	0.013565591444736569	-0.010809344264282927	-0.002648068445324725	-0.0003491146879310847	-1.6702589942241275e-05	-1.2199101772007666	0.04764926186009766	-0.0030370844748513343	-0.04457844529490661	-0.07754930773468613	0.0019242012648434947	0	0	-0.08579795698406548	0.28137787061210556
-0.24225237454981283	-0.01131986421631069	-0.3721282332584632	0.013565591444736569	-0.010809344264282927	-0.002648068445324725	-0.0003491146879310847	-1.6702589942241275e-05	-1.2199101772007666	0.04764926186009766	-0.0030370844748513343	-0.04457844529490661	-0.07754930773468613	0.0019242012648434947	0	0	-0.08579795698406548	0.28137787061210556
-0.2778379576795469	-0.010653167370494652	-0.3721282332584632	0.013565591444736569	-0.010809344264282927	-0.002648068445324725	-0.0003491146879310847	-1.6702589942241275e-05	-1.2199101772007666	0.04764926186009766	-0.0030370844748513343	-0.04457844529490661	-0.07754930773468613	0.0019242012648434947	1	0	-0.11684048900131039	0.2700425176363716
-0.2778379576795469	-0.010653167370494652	-0.3721282332584632	0.013565591444736569	-0.010809344264282927	-0.002648068445324725	-0.0003491146879310847	-1.6702589942241275e-05	-1.2199101772007666	0.04764926186009766	-0.0030370844748513343	-0.04457844529490661	-0.07754930773468613	0.0019242012648434947	1	0	-0.11684048900131039	0.2700425176363716
-0.3236705798039108	-0.008675914097129632	-0.3721282332584632	0.013565591444736569	-0.010809344264282927	-0.002648068445324725	-0.0003491146879310847	-1.6702589942241275e-05	-1.2199101772007666	0.04764926186009766	-0.0030370844748513343	-0.04457844529490661	-0.07754930773468613	0.0019242012648434947	2	0	-0.11684048900131039	0.2700425176363716
-0.3236705798039108	-0.008675914097129632	-0.3327938326084716	0.01617978243066176	-0.008609381841817587	-0.00469216401115613	-0.010574438717909196	-0.00011545871027074384	0.38856276315400495	-0.17664601834751625	0.19629825497708425	0.0528434357209083	-0.12228145104134293	0.028897485587368932	0	1	-0.12352650237627218	0.26411912521959274
-0.36871452800407667	-0.005804939503989955	-0.3327938326084716	0.01617978243066176	-0.008609381841817587	-0.00469216401115613	-0.010574438717909196	-0.00011545871027074384	0.38856276315400495	-0.17664601834751625	0.19629825497708425	0.0528434357209083	-0.12228145104134293	0.028897485587368932	0	1	-0.12352650237627218	0.26411912521959274
-0.36871452800407667	-0.005804939503989955	-0.3327938326084716	0.01617978243066176	-0.008609381841817587	-0.00469216401115613	-0.010574438717909196	-0.00011545871027074384	0.38856276315400495	-0.17664601834751625	0.19629825497708425	0.0528434357209083	-0.12228145104134293	0.028897485587368932	1	2	-0.12352650237627218	0.26411912521959274
-0.40672534335062127	-0.002822405977201893	-0.40014040155236064	-0.018905176482672204	-0.013561695029845389	-0.0002681816858247643	0.0009437762553110574	0.12481147804306136	0.03558351974900931	-0.13883833334902684	0.07207535050828547	0.040105317000502794	0.2814805972165959	1.089075664694146	2	3	-0.12352650237627218	0.26411912521959274
-0.4361911433838935	-0.00045571683247348316	-0.40014040155236064	-0.018905176482672204	-0.013561695029845389	-0.0002681816858247643	0.0009437762553110574	0.12481147804306136	0.03558351974900931	-0.13883833334902684	0.07207535050828547	0.040105317000502794	0.2814805972165959	1.089075664694146	2	3	-0.15747957840589819	0.23934350138529487
-0.4361911433838935	-0.00045571683247348316	-0.40014040155236064	-0.018905176482672204	-0.013561695029845389	-0.0002681816858247643	0.0009437762553110574	0.12481147804306136	0.03558351974900931	-0.13883833334902684	0.07207535050828547	0.040105317000502794	0.2814805972165959	1.089075664694146	0	4	-0.15747957840589819	0.23934350138529487
-0.46028934112846526	0.0008366145316370314	-0.40014040155236064	-0.018905176482672204	-0.013561695029845389	-0.0002681816858247643	0.0009437762553110574	0.12481147804306136	0.03558351974900931	-0.13883833334902684	0.07207535050828547	0.040105317000502794	0.2814805972165959	1.089075664694146	0	4	-0.15747957840589819	0.23934350138529487
-0.48310837484088354	0.0005193117086379888	-0.3997680852038483	0.0053452094759647295	-0.006596443970625643	-0.0004267987986983357	0.0107735456797462	0.016434572550414472	0.11733011354867484	0.3253244064173004	0.17777834233081952	0.03132628763261222	-0.14422469504675073	-2.354832207014578	1	5	-0.15747957840589819	0.23934350138529487
-0.48310837484088354	0.0005193117086379888	-0.3997680852038483	0.0053452094759647295	-0.006596443970625643	-0.0004267987986983357	0.0107735456797462	0.016434572550414472	0.11733011354867484	0.3253244064173004	0.17777834233081952	0.03132628763261222	-0.14422469504675073	-2.354832207014578	1	5	-0.19592048003439136	0.2234758318515514
-0.48310837484088354	0.0005193117086379888	-0.3997680852038483	0.0053452094759647295	-0.006596443970625643	-0.0004267987986983357	0.0107735456797462	0.016434572550414472	0.11733011354867484	0.3253244064173004	0.17777834233081952	0.03132628763261222	-0.14422469504675073	-2.354832207014578	2	6	-0.21663947465176414	0.21286826964958808
-0.5090252703077379	-0.000505330264225635	-0.3310868060201253	0.013514348589239944	-0.00330554663858873	-0.0032667647015669488	-0.0003004492826050864	-0.00015291703762976283	0.08663003974331099	0.06734729356846376	-0.0359736123027922	-0.009376615313914224	0.04406015200776685	-6.166131909149386e-05	2	6	-0.21663947465176414	0.21286826964958808
-0.004259423556608706	0.00011497977881186007	-0.008029595663286315	0.0067212535851544075	0.000148078499453419	-0.0010523371875521548	-0.0005297221322724255	-9.773698443282797e-05	-0.4454696783973663	0.11005792638461376	0.013582827081219509	0.06750381093903426	-0.016821741816154763	0.024261201995430644	0	0	0.00446270433336397	0.31107284859734735
-0.004259423556608706	0.00011497977881186007	-0.008029595663286315	0.0067212535851544075	0.000148078499453419	-0.0010523371875521548	-0.0005297221322724255	-9.773698443282797e-05	-0.4454696783973663	0.11005792638461376	0.013582827081219509	0.06750381093903426	-0.016821741816154763	0.024261201995430644	1	1	0.00446270433336397	0.31107284859734735
-0.017681831938288744	0.00043947884784996416	-0.008029595663286315	0.0067212535851544075	0.000148078499453419	-0.0010523371875521548	-0.0005297221322724255	-9.773698443282797e-05	-0.4454696783973663	0.11005792638461376	0.013582827081219509	0.06750381093903426	-0.016821741816154763	0.024261201995430644	0	0	-0.0016514290745893757	0.29432263531529745
-0.03955168780938527	0.001068361563719882	-0.06708775135989953	0.023402330601602017	-0.0014498656832921952	-0.0004570899689850805	-0.0027450517130294116	-3.8294969328944717e-07	-2.3245602935332905	-0.05054646449616196	-0.04073553698284019	-0.008612334034691548	-0.046947970529875344	-8.771142128366494e-05	0	0	-0.0016514290745893757	0.29432263531529745
-0.03955168780938527	0.001068361563719882	-0.06708775135989953	0.023402330601602017	-0.0014498656832921952	-0.0004570899689850805	-0.0027450517130294116	-3.8294969328944717e-07	-2.3245602935332905	-0.05054646449616196	-0.04073553698284019	-0.008612334034691548	-0.046947970529875344	-8.771142128366494e-05	0	0	-0.0016514290745893757	0.29432263531529745
-0.07025566527686232	0.0022024035696972463	-0.06708775135989953	0.023402330601602017	-0.0014498656832921952	-0.0004570899689850805	-0.0027450517130294116	-3.8294969328944717e-07	-2.3245602935332905	-0.05054646449616196	-0.04073553698284019	-0.008612334034691548	-0.046947970529875344	-8.771142128366494e-05	1	1	-0.0016514290745893757	0.29432263531529745
-0.07025566527686232	0.0022024035696972463	-0.06708775135989953	0.023402330601602017	-0.0014498656832921952	-0.0004570899689850805	-0.0027450517130294116	-3.8294969328944717e-07	-2.3245602935332905	-0.05054646449616196	-0.04073553698284019	-0.008612334034691548	-0.046947970529875344	-8.771142128366494e-05	2	2	-0.006425310072316335	0.30200418782235466
-0.11142762563888593	0.003910837552014033	-0.06708775135989953	0.023402330601602017	-0.0014498656832921952	-0.0004570899689850805	-0.0027450517130294116	-3.8294969328944717e-07	-2.3245602935332905	-0.05054646449616196	-0.04073553698284019	-0.008612334034691548	-0.046947970529875344	-8.771142128366494e-05	2	2	-0.006425310072316335	0.30200418782235466
-0.16098045783219161	0.006302944670011556	-0.36527932205961733	0.008607347057552062	-0.005119751921169424	-0.0023498359402784885	-0.0041485162255820995	-2.0569641579371023e-05	-2.4047097608677626	0.0861566201973889	0.013537649828900253	-0.03753604495722604	-0.014622632196258784	0.00544007936732438	3	3	-0.006425310072316335	0.30200418782235466
-0.16098045783219161	0.006302944670011556	-0.36527932205961733	0.008607347057552062	-0.005119751921169424	-0.0023498359402784885	-0.0041485162255820995	-2.0569641579371023e-05	-2.4047097608677626	0.0861566201973889	0.013537649828900253	-0.03753604495722604	-0.014622632196258784	0.00544007936732438	4	4	-0.006425310072316335	0.30200418782235466
-0.19754447484130455	0.008193408971738226	-0.36527932205961733	0.008607347057552062	-0.005119751921169424	-0.0023498359402784885	-0.0041485162255820995	-2.0569641579371023e-05	-2.4047097608677626	0.0861566201973889	0.013537649828900253	-0.03753604495722604	-0.014622632196258784	0.00544007936732438	4	4	-0.0008846991555473676	0.30997328107145716
-0.22422195346092985	0.009076856704482932	-0.39999979477462055	-0.02335246634360022	-0.009750129887189374	0.00011551338127446797	0.006457114134638786	0.297115132783242	5.786943927699184e-05	-0.22675494590965073	0.05502248483949862	0.07063183815114844	0.19243534896818432	3.529964375367676	5	5	-0.0008846991555473676	0.30997328107145716
-0.2416712285480039	0.008817586344975351	-0.39999979477462055	-0.02335246634360022	-0.009750129887189374	0.00011551338127446797	0.006457114134638786	0.297115132783242	5.786943927699184e-05	-0.22675494590965073	0.05502248483949862	0.07063183815114844	0.19243534896818432	3.529964375367676	6	6	-0.0008846991555473676	0.30997328107145716
-0.24904939163582368	0.007535757163196583	-0.39999979477462055	-0.02335246634360022	-0.009750129887189374	0.00011551338127446797	0.006457114134638786	0.297115132783242	5.786943927699184e-05	-0.22675494590965073	0.05502248483949862	0.07063183815114844	0.19243534896818432	3.529964375367676	7	7	-0.012501605493888972	0.30559774544294166
-0.24614156096849493	0.005427423036876188	-0.4000013585173612	-0.00374702889958467	0.012424134467442727	-0.00046079262880205363	0.005634314257134676	0.3571565388751834	0.00033354409189101375	-0.1382206864896915	0.19605006209354486	-0.04651012069016741	-0.10379848401873605	-2.3882355325561058	8	8	-0.021318546260948208	0.3039212507576106
-0.24614156096849493	0.005427423036876188	-0.4000013585173612	-0.00374702889958467	0.012424134467442727	-0.00046079262880205363	0.005634314257134676	0.3571565388751834	0.00033354409189101375	-0.1382206864896915	0.19605006209354486	-0.04651012069016741	-0.10379848401873605	-2.3882355325561058	8	8	-0.021318546260948208	0.3039212507576106
-0.2370088124116208	0.0027238808411699103	-0.4000013585173612	-0.00374702889958467	0.012424134467442727	-0.00046079262880205363	0.005634314257134676	0.3571565388751834	0.00033354409189101375	-0.1382206864896915	0.19605006209354486	-0.04651012069016741	-0.10379848401873605	-2.3882355325561058	9	9	-0.021318546260948208	0.3039212507576106
-0.2370088124116208	0.0027238808411699103	-0.4000013585173612	-0.00374702889958467	0.012424134467442727	-0.00046079262880205363	0.005634314257134676	0.3571565388751834	0.00033354409189101375	-0.1382206864896915	0.19605006209354486	-0.04651012069016741	-0.10379848401873605	-2.3882355325561058	9	9	-0.021318546260948208	0.3039212507576106
-0.22793161773136228	-1.8184610009686577e-05	-0.3441551650244401	0.009209930888243179	0.019696462351141975	-0.0001086839203479073	0.001829175045269693	-7.881539006149296e-05	2.5835062424977764	0.48326835888887143	0.2459878352701939	-0.0038344708656729565	0.14298775849930684	0.019736018173802883	10	10	-0.04956162334563971	0.2928542559161803
-0.22793161773136228	-1.8184610009686577e-05	-0.3441551650244401	0.009209930888243179	0.019696462351141975	-0.0001086839203479073	0.001829175045269693	-7.881539006149296e-05	2.5835062424977764	0.48326835888887143	0.2459878352701939	-0.0038344708656729565	0.14298775849930684	0.019736018173802883	11	11	-0.04956162334563971	0.2928542559161803
-0.22599175481475267	-0.0016762640037808522	-0.3441551650244401	0.009209930888243179	0.019696462351141975	-0.0001086839203479073	0.001829175045269693	-7.881539006149296e-05	2.5835062424977764	0.48326835888887143	0.2459878352701939	-0.0038344708656729565	0.14298775849930684	0.019736018173802883	11	11	-0.04956162334563971	0.2928542559161803
-0.2340474246332821	-0.002829765577016278	-0.3441551650244401	0.009209930888243179	0.019696462351141975	-0.0001086839203479073	0.001829175045269693	-7.881539006149296e-05	2.5835062424977764	0.48326835888887143	0.2459878352701939	-0.0038344708656729565	0.14298775849930684	0.019736018173802883	12	12	-0.04956162334563971	0.2928542559161803
-0.2340474246332821	-0.002829765577016278	-0.312073741649014	0.01700479123993137	0.009836262049405242	-0.0010800770871286502	0.015176383176020991	-4.2584074661178306e-05	-3.4300081010315178	-0.2890033470490987	-0.7737668246586585	0.04718355067293106	-0.06383131293032474	0.011666560226171185	13	13	-0.08582160768976863	0.2765372089119366
-0.2519909631819459	-0.005861983213426743	-0.3864655302426421	0.01083019495164006	-0.003907314524218997	-0.0002552542985165829	0.011787983452617112	0.005892878341558827	-3.245850240267389	-0.29829903827537074	-0.5607218700961595	0.029344602445477985	-0.26028163588653563	1.144954799702961	13	13	-0.08582160768976863	0.2765372089119366
-0.27764257277151466	-0.011310772461314648	-0.3864655302426421	0.01083019495164006	-0.003907314524218997	-0.0002552542985165829	0.011787983452617112	0.005892878341558827	-3.245850240267389	-0.29829903827537074	-0.5607218700961595	0.029344602445477985	-0.26028163588653563	1.144954799702961	15	15	-0.08582160768976863	0.2765372089119366
-0.3075613194938808	-0.01815875581792479	-0.3864655302426421	0.01083019495164006	-0.003907314524218997	-0.0002552542985165829	0.011787983452617112	0.005892878341558827	-3.245850240267389	-0.29829903827537074	-0.5607218700961595	0.029344602445477985	-0.26028163588653563	1.144954799702961	15	15	-0.09836956628500565	0.28375029877521785
-0.3075613194938808	-0.01815875581792479	-0.3864655302426421	0.01083019495164006	-0.003907314524218997	-0.0002552542985165829	0.011787983452617112	0.005892878341558827	-3.245850240267389	-0.29829903827537074	-0.5607218700961595	0.029344602445477985	-0.26028163588653563	1.144954799702961	15	15	-0.09836956628500565	0.28375029877521785
-0.3075613194938808	-0.01815875581792479	-0.40000002268462165	0.0005879230826950632	-0.005515986126089167	-0.0003421661955851363	-0.013094216909438572	0.04080015341806131	3.0532624381685025e-05	-0.14248034425395706	0.2621837123746717	-0.015776058241050106	-0.40374044304215057	-1.4029533384995783	15	15	-0.09836956628500565	0.28375029877521785
-0.33598675210871776	-0.02459339406337812	-0.40000002268462165	0.0005879230826950632	-0.005515986126089167	-0.0003421661955851363	-0.013094216909438572	0.04080015341806131	3.0532624381685025e-05	-0.14248034425395706	0.2621837123746717	-0.015776058241050106	-0.40374044304215057	-1.4029533384995783	16	16	-0.09836956628500565	0.28375029877521785
-0.371582389540439	-0.03015579630722424	-0.40000002268462165	0.0005879230826950632	-0.005515986126089167	-0.0003421661955851363	-0.013094216909438572	0.04080015341806131	3.0532624381685025e-05	-0.14248034425395706	0.2621837123746717	-0.015776058241050106	-0.40374044304215057	-1.4029533384995783	17	17	-0.09836956628500565	0.28375029877521785
-0.371582389540439	-0.03015579630722424	-0.40000002268462165	0.0005879230826950632	-0.005515986126089167	-0.0003421661955851363	-0.013094216909438572	0.04080015341806131	3.0532624381685025e-05	-0.14248034425395706	0.2621837123746717	-0.015776058241050106	-0.40374044304215057	-1.4029533384995783	17	17	-0.09659120256600237	0.266968361214174
-0.4158315052113545	-0.03463808965448448	-0.24871764390581586	0.014963143984475735	-0.006080016256873044	-0.0020491087060614532	-0.025653103237335273	-3.856637285970521e-06	0.9292199264753311	0.3376800207283064	-0.18113281240759763	0.019315629880375218	0.04936236223006085	0.0009965785902162905	18	18	-0.09622558450290151	0.2428764957265988
-0.46820077067967686	-0.03811010039684413	-0.24871764390581586	0.014963143984475735	-0.006080016256873044	-0.0020491087060614532	-0.025653103237335273	-3.856637285970521e-06	0.9292199264753311	0.3376800207283064	-0.18113281240759763	0.019315629880375218	0.04936236223006085	0.0009965785902162905	19	19	-0.1010078647729974	0.22935261864711834
-0.5554069163325088	-0.04527320526373471	-0.4000011058392481	-0.017871770054561864	-0.0010736206659416325	-0.0024703857597545564	0.007251199714961132	0.23950324094140818	0.00010716093434615104	-0.5641064377821574	-0.7664877562075341	0.07656758607820957	0.46404454320695165	4.249433165325334	21	21	-0.1010078647729974	0.22935261864711834
-0.590385599706337	-0.05163326221299797	-0.4000011058392481	-0.017871770054561864	-0.0010736206659416325	-0.0024703857597545564	0.007251199714961132	0.23950324094140818	0.00010716093434615104	-0.5641064377821574	-0.7664877562075341	0.07656758607820957	0.46404454320695165	4.249433165325334	22	22	-0.11798707652909653	0.2018757376799477
0.00023889075692221003	-9.048094977960047e-05	-0.3888435405270867	0.0007284434830543418	0.011391289022810724	0.0005315536418839528	0.0023761400204271865	0.38430559402063924	-0.09226832537191232	-0.3008708196439096	-0.2950939096448766	0.11007966962844004	0.030094630526473348	-1.307940991267069	23	23	-0.11798707652909653	0.2018757376799477
-0.0036342713894536418	0.0005096752479033608	-0.3888435405270867	0.0007284434830543418	0.011391289022810724	0.0005315536418839528	0.0023761400204271865	0.38430559402063924	-0.09226832537191232	-0.3008708196439096	-0.2950939096448766	0.11007966962844004	0.030094630526473348	-1.307940991267069	25	0	0.004551613588203426	0.3045303980025634
-0.0036342713894536418	0.0005096752479033608	0.08627831947798104	0.013908288188061668	-0.002746915657919402	-0.004244573065229851	0.0010472518661241992	-9.900073094293305e-05	4.674583759830181	0.650811059721503	-0.0744468961216806	-0.1943751768546505	0.12230231151301128	0.01767556061407749	26	1	0.004551613588203426	0.3045303980025634
-0.017742279205681423	0.0028357139946399773	0.20580496325497677	0.022803488001101435	-0.003699064972063404	-0.0052665378857224	0.0034183240459526587	0.002197622716136216	6.142983697511875	0.1780496053331172	-0.01875104574956745	0.04697569018662118	0.09601246627359247	0.1221963260934773	26	1	0.009152898289825621	0.2947586129277463
-0.038167705969441953	0.005626636095308987	0.20580496325497677	0.022803488001101435	-0.003699064972063404	-0.0052665378857224	0.0034183240459526587	0.002197622716136216	6.142983697511875	0.1780496053331172	-0.01875104574956745	0.04697569018662118	0.09601246627359247	0.1221963260934773	27	2	0.02213181216894046	0.297016374838745
-0.038167705969441953	0.005626636095308987	0.20580496325497677	0.022803488001101435	-0.003699064972063404	-0.0052665378857224	0.0034183240459526587	0.002197622716136216	6.142983697511875	0.1780496053331172	-0.01875104574956745	0.04697569018662118	0.09601246627359247	0.1221963260934773	27	2	0.02213181216894046	0.297016374838745
-0.05897936004703272	0.007247151008501873	0.20580496325497677	0.022803488001101435	-0.003699064972063404	-0.0052665378857224	0.0034183240459526587	0.002197622716136216	6.142983697511875	0.1780496053331172	-0.01875104574956745	0.04697569018662118	0.09601246627359247	0.1221963260934773	28	3	0.03436863122305994	0.29937986235280156
-0.07753603909028536	0.008222133512644109	0.5152431466621126	-0.011891205873373778	0.001520726035970199	0.0039332052830047814	0.004225149316019028	0.07227136634826792	-4.320242078275385	-0.24760557328191757	0.027850306063979285	0.08770848623491957	-0.058975128826152676	-5.493173733722369	29	4	0.03436863122305994	0.29937986235280156
-0.10146372916527707	0.009099494407496694	0.5152431466621126	-0.011891205873373778	0.001520726035970199	0.0039332052830047814	0.004225149316019028	0.07227136634826792	-4.320242078275385	-0.24760557328191757	0.027850306063979285	0.08770848623491957	-0.058975128826152676	-5.493173733722369	30	5	0.03436863122305994	0.29937986235280156
-0.16574931434044993	0.010477354475576486	0.10802463908038984	0.017266579865884424	-0.005791400169004035	-0.0031668389976298172	-0.008908725841239473	-7.126276540336818e-05	-5.601286487776479	-0.41097090740015085	0.08263004214666264	-0.04111433210382962	-0.15588403349500643	0.017814030170059336	32	7	0.05781861933096777	0.3116402111474427
-0.19739975197748505	0.012112429316578502	0.10802463908038984	0.017266579865884424	-0.005791400169004035	-0.0031668389976298172	-0.008908725841239473	-7.126276540336818e-05	-5.601286487776479	-0.41097090740015085	0.08263004214666264	-0.04111433210382962	-0.15588403349500643	0.017814030170059336	33	8	0.05781861933096777	0.3116402111474427
-0.2601952717148906	0.018128793102238375	-0.40000287399785694	0.007490939679632547	-0.040368482296905484	-0.0025867931083682905	0.0043435905154787235	0.002120860139424252	0.0019498526130248273	0.2623155032155131	-0.8899393653034975	0.014950344857067366	0.2551032434513807	-0.06206025405562121	35	10	0.08216490239929325	0.29005347425151595
-0.3005811807880008	0.020754413566831893	-0.40000287399785694	0.007490939679632547	-0.040368482296905484	-0.0025867931083682905	0.0043435905154787235	0.002120860139424252	0.0019498526130248273	0.2623155032155131	-0.8899393653034975	0.014950344857067366	0.2551032434513807	-0.06206025405562121	37	12	0.09070025544969618	0.2908962149668629
-0.3069999357304399	0.02051128249628834	-0.40000287399785694	0.007490939679632547	-0.040368482296905484	-0.0025867931083682905	0.0043435905154787235	0.002120860139424252	0.0019498526130248273	0.2623155032155131	-0.8899393653034975	0.014950344857067366	0.2551032434513807	-0.06206025405562121	38	13	0.09070025544969618	0.2908962149668629
-0.29500481328457706	0.02059232034167727	-0.20931892754452264	-0.01154803010372607	0.004811276207233206	0.000295505287333242	0.007302210870683723	0.21101790351163618	4.658339132000822	0.33883904012331434	-0.48503597616466	-0.09016269172601103	0.1545789474975824	0.42218951932417254	40	15	0.09070025544969618	0.2908962149668629
-0.2806626357129462	0.020815903465886364	-0.20931892754452264	-0.01154803010372607	0.004811276207233206	0.000295505287333242	0.007302210870683723	0.21101790351163618	4.658339132000822	0.33883904012331434	-0.48503597616466	-0.09016269172601103	0.1545789474975824	0.42218951932417254	41	16	0.07360600194969137	0.292836701705376
-0.2806626357129462	0.020815903465886364	0.08074766898226482	-0.000743239154846087	-0.004851057405653059	-0.0016038252129568775	0.00619973686117703	-3.765806448896569e-07	2.0580945114537714	0.02261713734793802	0.04508280943833666	0.023132727921311644	-0.1560991321607633	4.800609375754661e-05	41	16	0.07360600194969137	0.292836701705376
-0.2652642272681249	0.02128123537469955	0.10975172974480607	0.0009283497239085392	-0.004594845828317595	-0.0013167702663752223	0.0024255215135866592	-3.594290377240128e-05	0.8851568268597916	0.1142666664777382	-0.013335931770699194	0.012506659441346615	-0.21028348761540902	0.008843808026518296	42	17	0.07360600194969137	0.292836701705376
-0.252181050787268	0.022048892960035503	0.10975172974480607	0.0009283497239085392	-0.004594845828317595	-0.0013167702663752223	0.0024255215135866592	-3.594290377240128e-05	0.8851568268597916	0.1142666664777382	-0.013335931770699194	0.012506659441346615	-0.21028348761540902	0.008843808026518296	43	18	0.07360600194969137	0.292836701705376
-0.252181050787268	0.022048892960035503	0.10975172974480607	0.0009283497239085392	-0.004594845828317595	-0.0013167702663752223	0.0024255215135866592	-3.594290377240128e-05	0.8851568268597916	0.1142666664777382	-0.013335931770699194	0.012506659441346615	-0.21028348761540902	0.008843808026518296	43	18	0.030877673865297682	0.3028869214391281
-0.24282950038121376	0.023070023502667618	0.10975172974480607	0.0009283497239085392	-0.004594845828317595	-0.0013167702663752223	0.0024255215135866592	-3.594290377240128e-05	0.8851568268597916	0.1142666664777382	-0.013335931770699194	0.012506659441346615	-0.21028348761540902	0.008843808026518296	44	19	0.030877673865297682	0.3028869214391281
-0.23777164254682334	0.024300173550534387	0.0785687267973465	0.007979247375919485	-0.0026785990377273805	-0.0010961774828794901	-0.011033861142797363	0.025424046552426027	-1.8618429632418094	0.04334779419028595	0.13198746275196377	0.00304237943664136	-0.1952975647232751	0.7879361389263744	45	20	0.030877673865297682	0.3028869214391281
-0.23777164254682334	0.024300173550534387	0.0785687267973465	0.007979247375919485	-0.0026785990377273805	-0.0010961774828794901	-0.011033861142797363	0.025424046552426027	-1.8618429632418094	0.04334779419028595	0.13198746275196377	0.00304237943664136	-0.1952975647232751	0.7879361389263744	45	20	0.030877673865297682	0.3028869214391281
-0.2400162233347022	0.025580115409616917	0.0785687267973465	0.007979247375919485	-0.0026785990377273805	-0.0010961774828794901	-0.011033861142797363	0.025424046552426027	-1.8618429632418094	0.04334779419028595	0.13198746275196377	0.00304237943664136	-0.1952975647232751	0.7879361389263744	46	21	-0.02814571777222464	0.2819999373749634
-0.2400162233347022	0.025580115409616917	0.0785687267973465	0.007979247375919485	-0.0026785990377273805	-0.0010961774828794901	-0.011033861142797363	0.025424046552426027	-1.8618429632418094	0.04334779419028595	0.13198746275196377	0.00304237943664136	-0.1952975647232751	0.7879361389263744	46	21	-0.02814571777222464	0.2819999373749634
-0.2522782051308022	0.02701054039620553	-0.2047058929116563	0.01189038925256014	0.004861508672941106	-0.0001858342387670575	-0.01679404034552867	0.1192307623630171	-5.0670987688668605	0.167713777039244	-0.07354934647836041	0.012214883685766717	0.06783472664287801	1.4703733448379956	47	22	-0.051140590632734545	0.27101868053105677
-0.2522782051308022	0.02701054039620553	-0.2047058929116563	0.01189038925256014	0.004861508672941106	-0.0001858342387670575	-0.01679404034552867	0.1192307623630171	-5.0670987688668605	0.167713777039244	-0.07354934647836041	0.012214883685766717	0.06783472664287801	1.4703733448379956	47	22	-0.051140590632734545	0.27101868053105677
-0.2755638691229424	0.029084351999867638	-0.2047058929116563	0.01189038925256014	0.004861508672941106	-0.0001858342387670575	-0.01679404034552867	0.1192307623630171	-5.0670987688668605	0.167713777039244	-0.07354934647836041	0.012214883685766717	0.06783472664287801	1.4703733448379956	48	23	-0.051140590632734545	0.27101868053105677
-0.2755638691229424	0.029084351999867638	-0.2047058929116563	0.01189038925256014	0.004861508672941106	-0.0001858342387670575	-0.01679404034552867	0.1192307623630171	-5.0670987688668605	0.167713777039244	-0.07354934647836041	0.012214883685766717	0.06783472664287801	1.4703733448379956	48	23	-0.051140590632734545	0.27101868053105677
-0.3133327757623196	0.03397381155445364	-0.4002030164928536	0.019449780802192507	-0.032584014565050445	-0.007484172132881106	-0.003171541282029011	0.5208428142984456	0.052189976919727155	0.03914863544325975	-0.9179827128779837	-0.21981998218859522	0.15723699989823325	4.300944226190958	49	24	-0.08296127248341437	0.26240200820154613
-0.3588589298788504	0.04143257941258833	-0.4002030164928536	0.019449780802192507	-0.032584014565050445	-0.007484172132881106	-0.003171541282029011	0.5208428142984456	0.052189976919727155	0.03914863544325975	-0.9179827128779837	-0.21981998218859522	0.15723699989823325	4.300944226190958	49	24	-0.08296127248341437	0.26240200820154613
-0.40621017725998065	0.05042894863371926	-0.4002030164928536	0.019449780802192507	-0.032584014565050445	-0.007484172132881106	-0.003171541282029011	0.5208428142984456	0.052189976919727155	0.03914863544325975	-0.9179827128779837	-0.21981998218859522	0.15723699989823325	4.300944226190958	51	26	-0.08296127248341437	0.26240200820154613
-0.45316797846368606	0.059922921723870884	-0.2917223091723473	-0.005266609200217154	-0.007965563672460263	-0.00226512194794104	-0.005482033673050779	0.40713670194817997	1.2749754953590087	-0.036412908698525204	-0.03349764242223979	0.1992442738565594	0.024463071839919692	0.5944158309873484	52	27	-0.08530171797520689	0.2548068059626051
-0.49328189432465486	0.06887232402437123	-0.2917223091723473	-0.005266609200217154	-0.007965563672460263	-0.00226512194794104	-0.005482033673050779	0.40713670194817997	1.2749754953590087	-0.036412908698525204	-0.03349764242223979	0.1992442738565594	0.024463071839919692	0.5944158309873484	53	28	-0.08530171797520689	0.2548068059626051
-0.5251679252143445	0.07709435347241785	-0.08113713523294308	-0.00765533215041625	0.027765216829675587	-0.003935884562456415	0.0122208088973359	0.6126118696220093	1.2781151116528155	0.32604820724355	0.2708012825578952	-0.3024097051673197	0.48017033555536365	-1.8341885408484118	54	29	-0.10569831721871326	0.21973667027949403
0.0006551467907585112	-0.0003206527378305874	-0.08113713523294308	-0.00765533215041625	0.027765216829675587	-0.003935884562456415	0.0122208088973359	0.6126118696220093	1.2781151116528155	0.32604820724355	0.2708012825578952	-0.3024097051673197	0.48017033555536365	-1.8341885408484118	1	31	-0.10569831721871326	0.21973667027949403
-0.005383553870317842	0.0007713522382367114	0.04771261700566587	0.006072048608848135	-0.00012095258606592552	-0.001891166624378826	0.0003849292067066301	0.004073830954681945	6.023141767903281	0.5087303005063917	-0.01732591943629282	-0.11449014471006862	0.02719486477851496	0.19709627841428734	3	1	0.005351632050747474	0.3106347152581682
-0.005383553870317842	0.0007713522382367114	0.04771261700566587	0.006072048608848135	-0.00012095258606592552	-0.001891166624378826	0.0003849292067066301	0.004073830954681945	6.023141767903281	0.5087303005063917	-0.01732591943629282	-0.11449014471006862	0.02719486477851496	0.19709627841428734	3	1	0.005351632050747474	0.3106347152581682
-0.020580555678665274	0.0032546018214661947	0.04771261700566587	0.006072048608848135	-0.00012095258606592552	-0.001891166624378826	0.0003849292067066301	0.004073830954681945	6.023141767903281	0.5087303005063917	-0.01732591943629282	-0.11449014471006862	0.02719486477851496	0.19709627841428734	4	0	0.005351632050747474	0.3106347152581682
-0.03955366137203765	0.005226462468713221	0.3919160123916674	0.015945839383801008	-0.002642202791359516	-0.0027662442393410203	0.003684159453340996	0.004702625068756738	6.088345887879079	-0.384710654143511	0.05735725483576107	0.08397820394110603	0.004575651575776163	0.5970627654352638	5	1	0.020758972720790345	0.2975140669081475
-0.0577813976665932	0.0061325735714681424	0.3919160123916674	0.015945839383801008	-0.002642202791359516	-0.0027662442393410203	0.003684159453340996	0.004702625068756738	6.088345887879079	-0.384710654143511	0.05735725483576107	0.08397820394110603	0.004575651575776163	0.5970627654352638	6	2	0.030001792062212304	0.3003309411983843
-0.0577813976665932	0.0061325735714681424	0.3919160123916674	0.015945839383801008	-0.002642202791359516	-0.0027662442393410203	0.003684159453340996	0.004702625068756738	6.088345887879079	-0.384710654143511	0.05735725483576107	0.08397820394110603	0.004575651575776163	0.5970627654352638	6	2	0.030001792062212304	0.3003309411983843
-0.08961232933767047	0.007390946263744335	0.3919160123916674	0.015945839383801008	-0.002642202791359516	-0.0027662442393410203	0.003684159453340996	0.004702625068756738	6.088345887879079	-0.384710654143511	0.05735725483576107	0.08397820394110603	0.004575651575776163	0.5970627654352638	7	3	0.030001792062212304	0.3003309411983843
-0.11175600966519765	0.006644719265340456	0.734550528419855	-0.0035914115682489367	-0.001262097807069651	0.002123867863709883	0.005730732675598205	0.12195097737830807	-3.6804350163266735	0.4407467879083621	-0.10280001409222028	-0.08554573061774973	-0.06180152816009708	-7.025156151221644	9	5	0.04243210456011755	0.31195160682582374
-0.13983930179171158	0.005179972757844027	0.734550528419855	-0.0035914115682489367	-0.001262097807069651	0.002123867863709883	0.005730732675598205	0.12195097737830807	-3.6804350163266735	0.4407467879083621	-0.10280001409222028	-0.08554573061774973	-0.06180152816009708	-7.025156151221644	10	6	0.04243210456011755	0.31195160682582374
-0.163840100230878	0.003866584174754741	0.5870485951720736	0.000509202061942382	-0.01977604586004489	0.00042040617924765655	-0.008076587393320622	0.00035728870692341985	-5.526274077659064	-0.7894906746465522	0.13961634521848254	0.06469446347604543	-0.013197458803847574	-1.0578176897256535	11	7	0.04243210456011755	0.31195160682582374
-0.163840100230878	0.003866584174754741	0.5870485951720736	0.000509202061942382	-0.01977604586004489	0.00042040617924765655	-0.008076587393320622	0.00035728870692341985	-5.526274077659064	-0.7894906746465522	0.13961634521848254	0.06469446347604543	-0.013197458803847574	-1.0578176897256535	11	7	0.050482559613167007	0.309236339304245
-0.1839550689690322	0.003241357849540698	0.5870485951720736	0.000509202061942382	-0.01977604586004489	0.00042040617924765655	-0.008076587393320622	0.00035728870692341985	-5.526274077659064	-0.7894906746465522	0.13961634521848254	0.06469446347604543	-0.013197458803847574	-1.0578176897256535	12	8	0.050482559613167007	0.309236339304245
-0.2028683586069733	0.0032321802162022578	0.5870485951720736	0.000509202061942382	-0.01977604586004489	0.00042040617924765655	-0.008076587393320622	0.00035728870692341985	-5.526274077659064	-0.7894906746465522	0.13961634521848254	0.06469446347604543	-0.013197458803847574	-1.0578176897256535	12	8	0.050482559613167007	0.309236339304245
-0.2028683586069733	0.0032321802162022578	0.0009726009766017896	0.005051923740324149	-0.015246523022060643	-0.0022174380639965463	0.002007031569966955	-3.5488556511253933e-06	-5.991042184733235	0.2200227750079573	-0.11916331854735483	-0.0015420440213420802	0.06475828566572572	0.0008818623131001679	13	9	0.050482559613167007	0.309236339304245
-0.21942778909531088	0.0030442667938444827	-0.10967889428875655	0.0074039419222646785	-0.028767199047150527	-0.0033399389979242855	0.0035755021299390677	-0.0004929198713856664	-3.84804527664634	0.10698915954208021	-1.7521355300769024	-0.17338524972515054	0.137301475102733	-0.05282768958341236	14	10	0.03686541311692838	0.28535458517221846
-0.21942778909531088	0.0030442667938444827	-0.10967889428875655	0.0074039419222646785	-0.028767199047150527	-0.0033399389979242855	0.0035755021299390677	-0.0004929198713856664	-3.84804527664634	0.10698915954208021	-1.7521355300769024	-0.17338524972515054	0.137301475102733	-0.05282768958341236	14	10	0.03686541311692838	0.28535458517221846
-0.23428273584915976	0.0034871363344610327	-0.10967889428875655	0.0074039419222646785	-0.028767199047150527	-0.0033399389979242855	0.0035755021299390677	-0.0004929198713856664	-3.84804527664634	0.10698915954208021	-1.7521355300769024	-0.17338524972515054	0.137301475102733	-0.05282768958341236	15	11	0.03686541311692838	0.28535458517221846
-0.2414935106186855	0.0036920204628694804	-0.10967889428875655	0.0074039419222646785	-0.028767199047150527	-0.0033399389979242855	0.0035755021299390677	-0.0004929198713856664	-3.84804527664634	0.10698915954208021	-1.7521355300769024	-0.17338524972515054	0.137301475102733	-0.05282768958341236	15	11	0.03686541311692838	0.28535458517221846
-0.2414935106186855	0.0036920204628694804	-0.0327774321738703	-0.011207482983619954	-0.031514242422939986	-0.002220384612174442	-0.00101009546762576	0.15211719026283355	3.6173327342616126	-0.45987330969741413	1.1049281622373297	0.05821761539027262	-0.16345050711281844	2.6730968613465174	16	12	0.04168650602653237	0.2884248080575068
-0.23815403411217598	0.0041636830117670635	-0.0327774321738703	-0.011207482983619954	-0.031514242422939986	-0.002220384612174442	-0.00101009546762576	0.15211719026283355	3.6173327342616126	-0.45987330969741413	1.1049281622373297	0.05821761539027262	-0.16345050711281844	2.6730968613465174	17	13	0.04127524032136531	0.289556429653904
-0.22477184439804487	0.004816414232423226	-0.0327774321738703	-0.011207482983619954	-0.031514242422939986	-0.002220384612174442	-0.00101009546762576	0.15211719026283355	3.6173327342616126	-0.45987330969741413	1.1049281622373297	0.05821761539027262	-0.16345050711281844	2.6730968613465174	17	13	0.0328346827493887	0.2976500730948414
-0.22477184439804487	0.004816414232423226	-0.0327774321738703	-0.011207482983619954	-0.031514242422939986	-0.002220384612174442	-0.00101009546762576	0.15211719026283355	3.6173327342616126	-0.45987330969741413	1.1049281622373297	0.05821761539027262	-0.16345050711281844	2.6730968613465174	18	14	0.0328346827493887	0.2976500730948414
-0.2049031302493541	0.004040908985258956	0.28163930732253384	-0.0012318363751759875	0.0016867492888765767	0.001037022574809754	0.006516048345545755	0.015042537051153992	2.919670656484843	0.2445913509353066	-0.6411964887440837	-0.004366935235828373	0.16894585443136617	-3.1697455777515664	19	15	0.0328346827493887	0.2976500730948414
-0.18102355326078118	0.002855790177073764	0.28163930732253384	-0.0012318363751759875	0.0016867492888765767	0.001037022574809754	0.006516048345545755	0.015042537051153992	2.919670656484843	0.2445913509353066	-0.6411964887440837	-0.004366935235828373	0.16894585443136617	-3.1697455777515664	19	15	0.0328346827493887	0.2976500730948414
-0.18102355326078118	0.002855790177073764	0.28163930732253384	-0.0012318363751759875	0.0016867492888765767	0.001037022574809754	0.006516048345545755	0.015042537051153992	2.919670656484843	0.2445913509353066	-0.6411964887440837	-0.004366935235828373	0.16894585443136617	-3.1697455777515664	20	16	0.016397874267805986	0.3107035728461237
-0.15883616852183297	0.0017621901330204075	0.28163930732253384	-0.0012318363751759875	0.0016867492888765767	0.001037022574809754	0.006516048345545755	0.015042537051153992	2.919670656484843	0.2445913509353066	-0.6411964887440837	-0.004366935235828373	0.16894585443136617	-3.1697455777515664	21	17	0.016397874267805986	0.3107035728461237
-0.15883616852183297	0.0017621901330204075	0.4270863649896226	0.00520730056355756	0.0034881942143254463	-0.0011847625157006547	-0.00074039739168974	-0.00010984139914516078	-1.4727987571004868	-0.02322490375045394	0.3041626136703188	-0.0018328732015103696	-0.22768070933408888	0.02774596755555714	21	17	0.016397874267805986	0.3107035728461237
-0.13898965888353806	0.0013350843774139246	0.38982499024867234	0.005075895070634218	0.007085605485337432	-0.0012424059301832102	-0.005320862215619115	-6.902925955287742e-07	-1.8787374505228271	0.022490968238215392	0.05878948324629993	-0.01046079958571976	-0.22492976127983208	0.000597599200115484	22	18	0.016397874267805986	0.3107035728461237
-0.12395195059133687	0.002175399794856599	0.38982499024867234	0.005075895070634218	0.007085605485337432	-0.0012424059301832102	-0.005320862215619115	-6.902925955287742e-07	-1.8787374505228271	0.022490968238215392	0.05878948324629993	-0.01046079958571976	-0.22492976127983208	0.000597599200115484	22	18	-0.0070270519664426215	0.31219174278324907
-0.12395195059133687	0.002175399794856599	0.38982499024867234	0.005075895070634218	0.007085605485337432	-0.0012424059301832102	-0.005320862215619115	-6.902925955287742e-07	-1.8787374505228271	0.022490968238215392	0.05878948324629993	-0.01046079958571976	-0.22492976127983208	0.000597599200115484	23	19	-0.0070270519664426215	0.31219174278324907
-0.11844576946378109	0.005282855616586732	0.38982499024867234	0.005075895070634218	0.007085605485337432	-0.0012424059301832102	-0.005320862215619115	-6.902925955287742e-07	-1.8787374505228271	0.022490968238215392	0.05878948324629993	-0.01046079958571976	-0.22492976127983208	0.000597599200115484	23	19	-0.0070270519664426215	0.31219174278324907
-0.11844576946378109	0.005282855616586732	0.38982499024867234	0.005075895070634218	0.007085605485337432	-0.0012424059301832102	-0.005320862215619115	-6.902925955287742e-07	-1.8787374505228271	0.022490968238215392	0.05878948324629993	-0.01046079958571976	-0.22492976127983208	0.000597599200115484	24	20	-0.0070270519664426215	0.31219174278324907
-0.11844576946378109	0.005282855616586732	0.2076712084303578	0.01768116274522402	0.0034295287544301445	-0.003278362625438014	0.008603600305631787	-0.0005254283665507842	-2.2769753205367054	0.006957277600258882	-0.09780486423590938	0.09354835821237109	0.14289131064587557	0.13132380679674882	24	20	-0.0070270519664426215	0.31219174278324907
-0.12311173159327542	0.00872700925271778	0.2076712084303578	0.01768116274522402	0.0034295287544301445	-0.003278362625438014	0.008603600305631787	-0.0005254283665507842	-2.2769753205367054	0.006957277600258882	-0.09780486423590938	0.09354835821237109	0.14289131064587557	0.13132380679674882	25	21	-0.032425359110236224	0.30427445975701994
-0.13744761114962026	0.011077086164504202	0.2076712084303578	0.01768116274522402	0.0034295287544301445	-0.003278362625438014	0.008603600305631787	-0.0005254283665507842	-2.2769753205367054	0.006957277600258882	-0.09780486423590938	0.09354835821237109	0.14289131064587557	0.13132380679674882	25	21	-0.032425359110236224	0.30427445975701994
-0.13744761114962026	0.011077086164504202	0.2076712084303578	0.01768116274522402	0.0034295287544301445	-0.003278362625438014	0.008603600305631787	-0.0005254283665507842	-2.2769753205367054	0.006957277600258882	-0.09780486423590938	0.09354835821237109	0.14289131064587557	0.13132380679674882	26	22	-0.032425359110236224	0.30427445975701994
-0.1607599719049317	0.013078842537421372	-0.11501656553528417	0.009350520361299353	-0.006855693033221755	0.002809696190557709	-0.0044462522203030375	-1.3922228413676407e-05	-5.448809314461867	-0.05341699765900709	0.012272298585073893	-0.055088733338226434	-0.3305846364082795	0.003277050955065086	26	22	-0.04383371305286947	0.3032364332176649
-0.1607599719049317	0.013078842537421372	-0.22529235625341482	0.008811720461573636	-0.005898416987899502	0.0010544851394049815	-0.010861637806270252	-0.0003369841019935649	-5.431666436462484	-0.015658840561123544	0.07106849948561081	-0.10616904546535923	-0.2983746378787915	0.08423197876767263	27	23	-0.04383371305286947	0.3032364332176649
-0.19213393955388072	0.015308824914001873	-0.22529235625341482	0.008811720461573636	-0.005898416987899502	0.0010544851394049815	-0.010861637806270252	-0.0003369841019935649	-5.431666436462484	-0.015658840561123544	0.07106849948561081	-0.10616904546535923	-0.2983746378787915	0.08423197876767263	28	24	-0.04383371305286947	0.3032364332176649
-0.19213393955388072	0.015308824914001873	-0.22529235625341482	0.008811720461573636	-0.005898416987899502	0.0010544851394049815	-0.010861637806270252	-0.0003369841019935649	-5.431666436462484	-0.015658840561123544	0.07106849948561081	-0.10616904546535923	-0.2983746378787915	0.08423197876767263	28	24	-0.0497494402290814	0.30224765645834245
-0.22516903351680687	0.018709273056548764	-0.22529235625341482	0.008811720461573636	-0.005898416987899502	0.0010544851394049815	-0.010861637806270252	-0.0003369841019935649	-5.431666436462484	-0.015658840561123544	0.07106849948561081	-0.10616904546535923	-0.2983746378787915	0.08423197876767263	29	25	-0.0497494402290814	0.30224765645834245
-0.25110326389876136	0.02330690913132159	-0.40000217709577246	-0.005323850546832709	-0.001356680939887056	-0.004231968633775729	-0.012917468863085091	0.0345005091910604	0.0005449458356494574	-0.42558157700188537	0.06830982897662763	-0.0029217614603707087	0.27991371006637566	0.1457944609160995	29	25	-0.0497494402290814	0.30224765645834245
-0.25110326389876136	0.02330690913132159	-0.40000217709577246	-0.005323850546832709	-0.001356680939887056	-0.004231968633775729	-0.012917468863085091	0.0345005091910604	0.0005449458356494574	-0.42558157700188537	0.06830982897662763	-0.0029217614603707087	0.27991371006637566	0.1457944609160995	30	26	-0.0497494402290814	0.30224765645834245
-0.27273233116680223	0.029277483002955903	-0.40000217709577246	-0.005323850546832709	-0.001356680939887056	-0.004231968633775729	-0.012917468863085091	0.0345005091910604	0.0005449458356494574	-0.42558157700188537	0.06830982897662763	-0.0029217614603707087	0.27991371006637566	0.1457944609160995	31	27	-0.06683791438701818	0.2988112824881566
-0.27273233116680223	0.029277483002955903	-0.3895992596878779	-0.010091614621269507	-0.03491027039823358	-0.0031814546556994117	0.01130261294960988	0.272712562752635	1.2197868505164637	0.15872458886447072	0.08867854235535003	0.12184274116791949	0.2432764279150807	2.634325606881319	31	27	-0.06683791438701818	0.2988112824881566
-0.28783281661185667	0.03426834706575583	-0.3895992596878779	-0.010091614621269507	-0.03491027039823358	-0.0031814546556994117	0.01130261294960988	0.272712562752635	1.2197868505164637	0.15872458886447072	0.08867854235535003	0.12184274116791949	0.2432764279150807	2.634325606881319	32	28	-0.06683791438701818	0.2988112824881566
-0.29913557174192323	0.03835075898845817	-0.3895992596878779	-0.010091614621269507	-0.03491027039823358	-0.0031814546556994117	0.01130261294960988	0.272712562752635	1.2197868505164637	0.15872458886447072	0.08867854235535003	0.12184274116791949	0.2432764279150807	2.634325606881319	32	28	-0.0734484711053482	0.2945579436962098
-0.29913557174192323	0.03835075898845817	-0.3895992596878779	-0.010091614621269507	-0.03491027039823358	-0.0031814546556994117	0.01130261294960988	0.272712562752635	1.2197868505164637	0.15872458886447072	0.08867854235535003	0.12184274116791949	0.2432764279150807	2.634325606881319	33	29	-0.0734484711053482	0.2945579436962098
-0.3074289384012431	0.041507038313520615	-0.055130744670097265	0.0010647674692680908	0.0018954719071873072	0.002846568686134532	0.0145935881908823	0.4905429867338249	5.669580691716382	-0.02653771151002754	0.015127875736778373	-0.021445558347225974	-0.007139813858994232	1.9522311516250288	33	29	-0.0734484711053482	0.2945579436962098
-0.31386300739385076	0.04406973484982843	-0.055130744670097265	0.0010647674692680908	0.0018954719071873072	0.002846568686134532	0.0145935881908823	0.4905429867338249	5.669580691716382	-0.02653771151002754	0.015127875736778373	-0.021445558347225974	-0.007139813858994232	1.9522311516250288	34	30	-0.0734484711053482	0.2945579436962098
-0.31386300739385076	0.04406973484982843	-0.055130744670097265	0.0010647674692680908	0.0018954719071873072	0.002846568686134532	0.0145935881908823	0.4905429867338249	5.669580691716382	-0.02653771151002754	0.015127875736778373	-0.021445558347225974	-0.007139813858994232	1.9522311516250288	0	31	-0.10080480033299791	0.2784450095394289
-0.32178174738297644	0.04784882097700893	-0.055130744670097265	0.0010647674692680908	0.0018954719071873072	0.002846568686134532	0.0145935881908823	0.4905429867338249	5.669580691716382	-0.02653771151002754	0.015127875736778373	-0.021445558347225974	-0.007139813858994232	1.9522311516250288	0	31	-0.10080480033299791	0.2784450095394289
-0.32178174738297644	0.04784882097700893	0.3867215488859941	0.004526580394400348	-0.0031006611018966623	-0.007873136864846586	0.013020586349631103	0.5179035143181592	5.698081402564605	0.2010176855684062	0.15359123593438756	-0.030177366823835705	0.042471391133855785	0.06537743277995917	1	32	-0.10080480033299791	0.2784450095394289
-0.32763817045492755	0.05220125757117025	0.3867215488859941	0.004526580394400348	-0.0031006611018966623	-0.007873136864846586	0.013020586349631103	0.5179035143181592	5.698081402564605	0.2010176855684062	0.15359123593438756	-0.030177366823835705	0.042471391133855785	0.06537743277995917	1	32	-0.11639584571053598	0.28575836347164235
-0.32763817045492755	0.05220125757117025	0.3867215488859941	0.004526580394400348	-0.0031006611018966623	-0.007873136864846586	0.013020586349631103	0.5179035143181592	5.698081402564605	0.2010176855684062	0.15359123593438756	-0.030177366823835705	0.042471391133855785	0.06537743277995917	2	33	-0.11639584571053598	0.28575836347164235
-0.32860878717050146	0.05574203604906686	0.507704681744495	-0.00799086214471334	0.013071853262270672	0.0012598477028449295	0.0016200455909771705	0.19231562425502258	0.03850199820291689	-0.024165596362184426	0.02827872022768191	0.10728910979870143	-0.18445331331200743	-5.404545100682099	3	34	-0.11639584571053598	0.28575836347164235
-0.3274817208140791	0.060056823654466	0.5070995100289792	-0.006474263658843071	0.011866739140403482	0.002357495346517524	-0.001228910804561778	0.07568159521362627	0.35911721043173817	0.14345010174534856	-0.13552332127319017	0.012858112626518259	-0.1040326783560836	-5.517945000752669	3	34	-0.13868239646898153	0.290586669483076
-0.3274817208140791	0.060056823654466	0.5070995100289792	-0.006474263658843071	0.011866739140403482	0.002357495346517524	-0.001228910804561778	0.07568159521362627	0.35911721043173817	0.14345010174534856	-0.13552332127319017	0.012858112626518259	-0.1040326783560836	-5.517945000752669	4	35	-0.13868239646898153	0.290586669483076
-0.3253218535647948	0.06496060692200965	0.5070995100289792	-0.006474263658843071	0.011866739140403482	0.002357495346517524	-0.001228910804561778	0.07568159521362627	0.35911721043173817	0.14345010174534856	-0.13552332127319017	0.012858112626518259	-0.1040326783560836	-5.517945000752669	4	35	-0.13868239646898153	0.290586669483076
-0.3253218535647948	0.06496060692200965	0.5070995100289792	-0.006474263658843071	0.011866739140403482	0.002357495346517524	-0.001228910804561778	0.07568159521362627	0.35911721043173817	0.14345010174534856	-0.13552332127319017	0.012858112626518259	-0.1040326783560836	-5.517945000752669	5	36	-0.13868239646898153	0.290586669483076
-0.32478317276317853	0.06940658042461116	0.5826372286008761	0.006099204552968196	0.0035574997513840856	-0.0011110108064897872	-0.0014009740230758183	-1.4314652627689384e-06	-0.7052619999909657	0.15050204967500783	-0.09731111980028861	-0.0510766115797735	0.01766463618816627	0.00039634746563610435	5	36	-0.18721259249374111	0.2907396529142305
-0.32478317276317853	0.06940658042461116	0.5826372286008761	0.006099204552968196	0.0035574997513840856	-0.0011110108064897872	-0.0014009740230758183	-1.4314652627689384e-06	-0.7052619999909657	0.15050204967500783	-0.09731111980028861	-0.0510766115797735	0.01766463618816627	0.00039634746563610435	6	37	-0.18721259249374111	0.2907396529142305
-0.32897189780763125	0.07264764852602407	0.5826372286008761	0.006099204552968196	0.0035574997513840856	-0.0011110108064897872	-0.0014009740230758183	-1.4314652627689384e-06	-0.7052619999909657	0.15050204967500783	-0.09731111980028861	-0.0510766115797735	0.01766463618816627	0.00039634746563610435	7	38	-0.18721259249374111	0.2907396529142305
-0.3430171863114683	0.07417608964175491	0.5826372286008761	0.006099204552968196	0.0035574997513840856	-0.0011110108064897872	-0.0014009740230758183	-1.4314652627689384e-06	-0.7052619999909657	0.15050204967500783	-0.09731111980028861	-0.0510766115797735	0.01766463618816627	0.00039634746563610435	7	38	-0.18721259249374111	0.2907396529142305
-0.3430171863114683	0.07417608964175491	0.3261007200308539	0.015346321157667653	-0.00031791955462168175	-0.0002016747727093815	-0.008552032158251066	-3.241855056579368e-05	-4.049886908632734	0.2171437614028766	-0.09468421188455145	-0.020223652158061878	-0.24315947178169178	0.007989625307853299	8	39	-0.2587714958320659	0.2610799555267535
-0.36809202798605883	0.0750957015088862	0.3261007200308539	0.015346321157667653	-0.00031791955462168175	-0.0002016747727093815	-0.008552032158251066	-3.241855056579368e-05	-4.049886908632734	0.2171437614028766	-0.09468421188455145	-0.020223652158061878	-0.24315947178169178	0.007989625307853299	8	39	-0.2587714958320659	0.2610799555267535
-0.36809202798605883	0.0750957015088862	0.3261007200308539	0.015346321157667653	-0.00031791955462168175	-0.0002016747727093815	-0.008552032158251066	-3.241855056579368e-05	-4.049886908632734	0.2171437614028766	-0.09468421188455145	-0.020223652158061878	-0.24315947178169178	0.007989625307853299	9	40	-0.2587714958320659	0.2610799555267535
-0.40393524966760663	0.07612802804086323	0.3261007200308539	0.015346321157667653	-0.00031791955462168175	-0.0002016747727093815	-0.008552032158251066	-3.241855056579368e-05	-4.049886908632734	0.2171437614028766	-0.09468421188455145	-0.020223652158061878	-0.24315947178169178	0.007989625307853299	10	41	-0.2587714958320659	0.2610799555267535
-0.40393524966760663	0.07612802804086323	0.018490569372411336	0.014008723173306592	-0.0026747931981283557	-0.0044520029106234205	-0.023792680096148544	-6.77426432780237e-05	-1.5256539062494903	-0.1923308248000941	0.01715207350265946	-0.04672954136733032	-0.03329021805897858	-0.06870839795572792	10	41	-0.30453476141853353	0.2405163970774023
-0.4472138452272625	0.07787475023924319	0.018490569372411336	0.014008723173306592	-0.0026747931981283557	-0.0044520029106234205	-0.023792680096148544	-6.77426432780237e-05	-1.5256539062494903	-0.1923308248000941	0.01715207350265946	-0.04672954136733032	-0.03329021805897858	-0.06870839795572792	11	42	-0.30453476141853353	0.2405163970774023
-0.4914649903746147	0.08049769810739231	0.018490569372411336	0.014008723173306592	-0.0026747931981283557	-0.0044520029106234205	-0.023792680096148544	-6.77426432780237e-05	-1.5256539062494903	-0.1923308248000941	0.01715207350265946	-0.04672954136733032	-0.03329021805897858	-0.06870839795572792	11	42	-0.3148068860555314	0.22970928120622536
-0.4914649903746147	0.08049769810739231	0.018490569372411336	0.014008723173306592	-0.0026747931981283557	-0.0044520029106234205	-0.023792680096148544	-6.77426432780237e-05	-1.5256539062494903	-0.1923308248000941	0.01715207350265946	-0.04672954136733032	-0.03329021805897858	-0.06870839795572792	12	43	-0.3148068860555314	0.22970928120622536
-0.5320281245125338	0.08415951499793911	-0.1023831366732848	-0.007454568601175993	0.002688715429557398	-0.004119706039916515	0.005082661061482696	0.07621097128283605	-2.269736011614351	-0.20151910310208665	0.18594740955182254	0.055356690615678106	0.6343929360003413	2.8564302805836155	12	43	-0.3148068860555314	0.22970928120622536
-0.5320281245125338	0.08415951499793911	-0.1023831366732848	-0.007454568601175993	0.002688715429557398	-0.004119706039916515	0.005082661061482696	0.07621097128283605	-2.269736011614351	-0.20151910310208665	0.18594740955182254	0.055356690615678106	0.6343929360003413	2.8564302805836155	13	44	-0.3148068860555314	0.22970928120622536
-0.5653750900934442	0.08624234675202526	-0.1023831366732848	-0.007454568601175993	0.002688715429557398	-0.004119706039916515	0.005082661061482696	0.07621097128283605	-2.269736011614351	-0.20151910310208665	0.18594740955182254	0.055356690615678106	0.6343929360003413	2.8564302805836155	14	45	-0.33773866207958714	0.20326262041302073
0.005609382120077496	-0.0013634748838718361	-0.1358352969114618	-0.0050475141693118175	-0.0006356939807146134	0.002599193541054312	0.027361565306442515	0.257380858785317	0.6358986951154224	0.20424337471544063	-0.0531705350643988	0.011973993078348358	-0.0791856078075317	1.4798245411295563	15	46	-0.33773866207958714	0.20326262041302073
