verlab/bioloid_common/walker_controller/src/ddpg2/trajectory_file.csv
r_shoulder_swing_joint	l_shoulder_swing_joint	r_shoulder_lateral_joint	l_shoulder_lateral_joint	r_elbow_joint	l_elbow_joint	r_hip_twist_joint	l_hip_twist_joint	r_hip_lateral_joint	l_hip_lateral_joint	r_hip_swing_joint	l_hip_swing_joint	r_knee_joint	l_knee_joint	r_ankle_swing_joint	l_ankle_swing_joint	r_ankle_lateral_joint	l_ankle_lateral_joint
0.0	0.0	0	0	0	0	0	0	0	0	0	0	0	0	64	0	4.696666571050306e-06	0.29401613993983206
0.0	0.0	0	0	0	0	0	0	0	0	0	0	0	0	65	0	4.696666571050306e-06	0.29401613993983206
0.0	0.0	0	0	0	0	0	0	0	0	0	0	0	0	65	0	4.696666571050306e-06	0.29401613993983206
0.0	0.0	0	0	0	0	0	0	0	0	0	0	0	0	66	0	4.696666571050306e-06	0.29401613993983206
0.0	0.0	0	0	0	0	0	0	0	0	0	0	0	0	66	0	4.696666571050306e-06	0.29401613993983206
0.0	0.0	0	0	0	0	0	0	0	0	0	0	0	0	67	0	4.696666571050306e-06	0.29401613993983206
0.0	0.0	0	0	0	0	0	0	0	0	0	0	0	0	67	0	4.696666571050306e-06	0.29401613993983206
0.0	0.0	0	0	0	0	0	0	0	0	0	0	0	0	68	0	0.02400281165479357	0.3061739132572094
0.0	0.0	0	0	0	0	0	0	0	0	0	0	0	0	68	0	0.02400281165479357	0.3061739132572094
0.0	0.0	0	0	0	0	0	0	0	0	0	0	0	0	69	4	0.02400281165479357	0.3061739132572094
0.0	0.0	0	0	0	0	0	0	0	0	0	0	0	0	70	5	0.02400281165479357	0.3061739132572094
0.0	0.0	0	0	0	0	0	0	0	0	0	0	0	0	70	5	0.02400281165479357	0.3061739132572094
0.0	0.0	0	0	0	0	0	0	0	0	0	0	0	0	71	6	0.02400281165479357	0.3061739132572094
0.0	0.0	0	0	0	0	0	0	0	0	0	0	0	0	71	6	0.005625347527971416	0.31144233041228375
0.0	0.0	0	0	0	0	0	0	0	0	0	0	0	0	72	7	0.005625347527971416	0.31144233041228375
0.0	0.0	0	0	0	0	0	0	0	0	0	0	0	0	73	8	0.005625347527971416	0.31144233041228375
0.0	0.0	0	0	0	0	0	0	0	0	0	0	0	0	73	8	0.005625347527971416	0.31144233041228375
0.0	0.0	0	0	0	0	0	0	0	0	0	0	0	0	74	9	0.005625347527971416	0.31144233041228375
0.0	0.0	0	0	0	0	0	0	0	0	0	0	0	0	74	9	0.005625347527971416	0.31144233041228375
0.0	0.0	0	0	0	0	0	0	0	0	0	0	0	0	75	10	0.005625347527971416	0.31144233041228375
0.0	0.0	0	0	0	0	0	0	0	0	0	0	0	0	76	11	-0.03930015926337662	0.2804106358386379
0.0	0.0	0	0	0	0	0	0	0	0	0	0	0	0	76	11	-0.03930015926337662	0.2804106358386379
0.0	0.0	0	0	0	0	0	0	0	0	0	0	0	0	77	12	-0.03930015926337662	0.2804106358386379
0.0	0.0	0	0	0	0	0	0	0	0	0	0	0	0	77	12	-0.03930015926337662	0.2804106358386379
0.0	0.0	0	0	0	0	0	0	0	0	0	0	0	0	78	13	-0.03930015926337662	0.2804106358386379
0.0	0.0	0	0	0	0	0	0	0	0	0	0	0	0	79	14	-0.03930015926337662	0.2804106358386379
0.0	0.0	0	0	0	0	0	0	0	0	0	0	0	0	79	14	-0.03930015926337662	0.2804106358386379
0.0	0.0	0	0	0	0	0	0	0	0	0	0	0	0	80	15	-0.044939691900031935	0.28459721305440056
0.0	0.0	0	0	0	0	0	0	0	0	0	0	0	0	80	15	-0.03548703531386084	0.279445316946159
0.0	0.0	0	0	0	0	0	0	0	0	0	0	0	0	81	16	-0.03548703531386084	0.279445316946159
0.0	0.0	0	0	0	0	0	0	0	0	0	0	0	0	81	16	-0.03548703531386084	0.279445316946159
0.0	0.0	0	0	0	0	0	0	0	0	0	0	0	0	82	17	-0.03548703531386084	0.279445316946159
0.0	0.0	0	0	0	0	0	0	0	0	0	0	0	0	83	18	-0.03548703531386084	0.279445316946159
0.0	0.0	0	0	0	0	0	0	0	0	0	0	0	0	83	18	-0.03548703531386084	0.279445316946159
0.0	0.0	0	0	0	0	0	0	0	0	0	0	0	0	84	19	-0.03548703531386084	0.279445316946159
0.0	0.0	0	0	0	0	0	0	0	0	0	0	0	0	84	19	-0.012628718485678092	0.27547695076437306
0.0	0.0	0	0	0	0	0	0	0	0	0	0	0	0	85	20	-0.012628718485678092	0.27547695076437306
0.0	0.0	0	0	0	0	0	0	0	0	0	0	0	0	86	21	-0.012628718485678092	0.27547695076437306
0.0	0.0	0	0	0	0	0	0	0	0	0	0	0	0	86	21	-0.012628718485678092	0.27547695076437306
0.0	0.0	0	0	0	0	0	0	0	0	0	0	0	0	87	22	-0.012628718485678092	0.27547695076437306
0.0	0.0	0	0	0	0	0	0	0	0	0	0	0	0	87	22	-0.012628718485678092	0.27547695076437306
0.0	0.0	0	0	0	0	0	0	0	0	0	0	0	0	88	23	0.0014456285421303103	0.2687295262599484
0.0	0.0	0	0	0	0	0	0	0	0	0	0	0	0	88	23	0.0014456285421303103	0.2687295262599484
0.0	0.0	0	0	0	0	0	0	0	0	0	0	0	0	89	24	0.0014456285421303103	0.2687295262599484
0.0	0.0	0	0	0	0	0	0	0	0	0	0	0	0	90	25	0.0014456285421303103	0.2687295262599484
0.0	0.0	0	0	0	0	0	0	0	0	0	0	0	0	90	25	0.0014456285421303103	0.2687295262599484
0.0	0.0	0	0	0	0	0	0	0	0	0	0	0	0	91	26	0.0014456285421303103	0.2687295262599484
0.0	0.0	0	0	0	0	0	0	0	0	0	0	0	0	91	26	0.0014456285421303103	0.2687295262599484
0.0	0.0	0	0	0	0	0	0	0	0	0	0	0	0	92	27	0.057544928275013084	0.25065230599740856
0.0	0.0	0	0	0	0	0	0	0	0	0	0	0	0	93	28	0.057544928275013084	0.25065230599740856
0.0	0.0	0	0	0	0	0	0	0	0	0	0	0	0	93	28	0.057544928275013084	0.25065230599740856
0.0	0.0	0	0	0	0	0	0	0	0	0	0	0	0	94	29	0.057544928275013084	0.25065230599740856
0.0	0.0	0	0	0	0	0	0	0	0	0	0	0	0	94	29	0.057544928275013084	0.25065230599740856
0.0	0.0	0	0	0	0	0	0	0	0	0	0	0	0	95	30	0.057544928275013084	0.25065230599740856
0.0	0.0	0	0	0	0	0	0	0	0	0	0	0	0	96	31	0.057544928275013084	0.25065230599740856
0.0	0.0	0	0	0	0	0	0	0	0	0	0	0	0	96	31	0.10050971424041164	0.2484909954612945
0.0	0.0	0	0	0	0	0	0	0	0	0	0	0	0	97	32	0.10050971424041164	0.2484909954612945
0.0	0.0	0	0	0	0	0	0	0	0	0	0	0	0	97	32	0.10050971424041164	0.2484909954612945
0.0	0.0	0	0	0	0	0	0	0	0	0	0	0	0	98	33	0.10050971424041164	0.2484909954612945
0.0	0.0	0	0	0	0	0	0	0	0	0	0	0	0	98	33	0.10050971424041164	0.2484909954612945
0.0	0.0	0	0	0	0	0	0	0	0	0	0	0	0	99	34	0.10050971424041164	0.2484909954612945
0.0	0.0	0	0	0	0	0	0	0	0	0	0	0	0	100	35	0.1529951391706428	0.2358437858654836
0.0	0.0	0	0	0	0	0	0	0	0	0	0	0	0	100	35	0.1529951391706428	0.2358437858654836
0.0	0.0	0	0	0	0	0	0	0	0	0	0	0	0	101	36	0.1529951391706428	0.2358437858654836
0.0	0.0	0	0	0	0	0	0	0	0	0	0	0	0	101	36	0.1529951391706428	0.2358437858654836
0.0	0.0	0	0	0	0	0	0	0	0	0	0	0	0	102	37	0.1529951391706428	0.2358437858654836
0.0	0.0	0	0	0	0	0	0	0	0	0	0	0	0	103	38	0.1529951391706428	0.2358437858654836
0.0	0.0	0	0	0	0	0	0	0	0	0	0	0	0	103	38	0.1529951391706428	0.2358437858654836
0.0	0.0	0	0	0	0	0	0	0	0	0	0	0	0	104	39	0.2006541217368401	0.19401085936909673
0.0	0.0	0	0	0	0	0	0	0	0	0	0	0	0	104	39	0.2006541217368401	0.19401085936909673
0.0	0.0	0	0	0	0	0	0	0	0	0	0	0	0	105	40	0.2006541217368401	0.19401085936909673
0.0	0.0	0	0	0	0	0	0	0	0	0	0	0	0	106	41	0.2006541217368401	0.19401085936909673
0.0	0.0	0	0	0	0	0	0	0	0	0	0	0	0	106	41	0.2006541217368401	0.19401085936909673
0.0	0.0	0	0	0	0	0	0	0	0	0	0	0	0	107	42	0.2006541217368401	0.19401085936909673
0.0	0.0	0	0	0	0	0	0	0	0	0	0	0	0	107	42	0.22398450139527876	0.1564137402170122
0.0	0.0	0	0	0	0	0	0	0	0	0	0	0	0	108	43	0.22398450139527876	0.1564137402170122
0.0	0.0	0	0	0	0	0	0	0	0	0	0	0	0	108	43	0.2257338755850388	0.15083964095180252
0.0	0.0	0	0	0	0	0	0	0	0	0	0	0	0	109	44	0.2257338755850388	0.15083964095180252
0.0	0.0	0	0	0	0	0	0	0	0	0	0	0	0	110	45	0.2257338755850388	0.15083964095180252
0.0	0.0	0	0	0	0	0	0	0	0	0	0	0	0	110	45	0.2257338755850388	0.15083964095180252
0.0	0.0	0	0	0	0	0	0	0	0	0	0	0	0	111	46	0.2257338755850388	0.15083964095180252
0.0	0.0	0	0	0	0	0	0	0	0	0	0	0	0	111	46	0.2257338755850388	0.15083964095180252
0.0	0.0	0	0	0	0	0	0	0	0	0	0	0	0	112	47	0.2318525754191576	0.11871904491329412
0.0	0.0	0	0	0	0	0	0	0	0	0	0	0	0	113	48	0.2318525754191576	0.11871904491329412
0.0	0.0	0	0	0	0	0	0	0	0	0	0	0	0	113	48	0.2318525754191576	0.11871904491329412
0.0	0.0	0	0	0	0	0	0	0	0	0	0	0	0	114	49	0.2318525754191576	0.11871904491329412
0.0	0.0	0	0	0	0	0	0	0	0	0	0	0	0	114	49	0.2318525754191576	0.11871904491329412
0.0	0.0	0	0	0	0	0	0	0	0	0	0	0	0	115	50	0.2318525754191576	0.11871904491329412
0.0	0.0	0	0	0	0	0	0	0	0	0	0	0	0	116	51	0.2318525754191576	0.11871904491329412
0.0	0.0	0	0	0	0	0	0	0	0	0	0	0	0	116	51	0.24024279795903497	0.07734879194293126
0.0	0.0	0	0	0	0	0	0	0	0	0	0	0	0	117	52	0.24024279795903497	0.07734879194293126
0.0	0.0	0	0	0	0	0	0	0	0	0	0	0	0	117	52	0.24024279795903497	0.07734879194293126
0.0	0.0	0	0	0	0	0	0	0	0	0	0	0	0	118	53	0.24024279795903497	0.07734879194293126
0.0	0.0	0	0	0	0	0	0	0	0	0	0	0	0	119	54	0.24024279795903497	0.07734879194293126
0.0	0.0	0	0	0	0	0	0	0	0	0	0	0	0	119	54	0.24024279795903497	0.07734879194293126
0.0	0.0	0	0	0	0	0	0	0	0	0	0	0	0	120	55	0.25820671376348725	0.060349492125174806
0.0	0.0	0	0	0	0	0	0	0	0	0	0	0	0	120	55	0.25820671376348725	0.060349492125174806
0.0	0.0	0	0	0	0	0	0	0	0	0	0	0	0	121	56	0.25820671376348725	0.060349492125174806
0.0	0.0	0	0	0	0	0	0	0	0	0	0	0	0	121	56	0.25820671376348725	0.060349492125174806
0.0	0.0	0	0	0	0	0	0	0	0	0	0	0	0	122	57	0.25820671376348725	0.060349492125174806
0.0	0.0	0	0	0	0	0	0	0	0	0	0	0	0	123	58	0.25820671376348725	0.060349492125174806
0.0	0.0	0	0	0	0	0	0	0	0	0	0	0	0	123	58	0.25820671376348725	0.060349492125174806
0.0	0.0	0	0	0	0	0	0	0	0	0	0	0	0	124	59	0.26179386732618043	0.06636603172877979
0.0	0.0	0	0	0	0	0	0	0	0	0	0	0	0	124	59	0.26179386732618043	0.06636603172877979
0.0	0.0	0	0	0	0	0	0	0	0	0	0	0	0	125	60	0.26179386732618043	0.06636603172877979
0.0	0.0	0	0	0	0	0	0	0	0	0	0	0	0	125	61	0.26179386732618043	0.06636603172877979
0.0	0.0	0	0	0	0	0	0	0	0	0	0	0	0	126	61	0.26179386732618043	0.06636603172877979
0.0	0.0	0	0	0	0	0	0	0	0	0	0	0	0	127	62	0.26179386732618043	0.06636603172877979
0.0	0.0	0	0	0	0	0	0	0	0	0	0	0	0	127	62	-0.00022971673774707657	0.2951376060867297
0.0	0.0	0	0	0	0	0	0	0	0	0	0	0	0	0	0	-0.00022971673774707657	0.2951376060867297
0.0	0.0	0	0	0	0	0	0	0	0	0	0	0	0	0	0	-0.0024188815592399993	0.29503212878488955
0.0	0.0	0	0	0	0	0	0	0	0	0	0	0	0	0	0	-0.0024188815592399993	0.29503212878488955
0.0	0.0	0	0	0	0	0	0	0	0	0	0	0	0	1	0	-0.0024188815592399993	0.29503212878488955
0.0	0.0	0	0	0	0	0	0	0	0	0	0	0	0	1	0	-0.0024188815592399993	0.29503212878488955
0.0	0.0	0	0	0	0	0	0	0	0	0	0	0	0	2	2	-0.0024188815592399993	0.29503212878488955
0.0	0.0	0	0	0	0	0	0	0	0	0	0	0	0	2	2	-0.0024188815592399993	0.29503212878488955
0.0	0.0	0	0	0	0	0	0	0	0	0	0	0	0	3	3	-0.0345179163110879	0.3040416290433801
0.0	0.0	0	0	0	0	0	0	0	0	0	0	0	0	4	4	-0.0345179163110879	0.3040416290433801
0.0	0.0	0	0	0	0	0	0	0	0	0	0	0	0	4	4	-0.0345179163110879	0.3040416290433801
0.0	0.0	0	0	0	0	0	0	0	0	0	0	0	0	5	5	-0.0345179163110879	0.3040416290433801
0.0	0.0	0	0	0	0	0	0	0	0	0	0	0	0	5	5	-0.0345179163110879	0.3040416290433801
0.0	0.0	0	0	0	0	0	0	0	0	0	0	0	0	6	6	-0.0345179163110879	0.3040416290433801
0.0	0.0	0	0	0	0	0	0	0	0	0	0	0	0	7	7	-0.0345179163110879	0.3040416290433801
0.0	0.0	0	0	0	0	0	0	0	0	0	0	0	0	7	7	0.0019572581488522967	0.27588714027992683
0.0	0.0	0	0	0	0	0	0	0	0	0	0	0	0	8	8	0.0019572581488522967	0.27588714027992683
0.0	0.0	0	0	0	0	0	0	0	0	0	0	0	0	8	8	0.0019572581488522967	0.27588714027992683
0.0	0.0	0	0	0	0	0	0	0	0	0	0	0	0	9	9	0.0019572581488522967	0.27588714027992683
0.0	0.0	0	0	0	0	0	0	0	0	0	0	0	0	9	9	0.0019572581488522967	0.27588714027992683
0.0	0.0	0	0	0	0	0	0	0	0	0	0	0	0	10	10	0.0019572581488522967	0.27588714027992683
0.0	0.0	0	0	0	0	0	0	0	0	0	0	0	0	11	11	0.0019572581488522967	0.27588714027992683
0.0	0.0	0	0	0	0	0	0	0	0	0	0	0	0	11	11	0.032726290767959736	0.2916184799199846
0.0	0.0	0	0	0	0	0	0	0	0	0	0	0	0	12	12	0.032726290767959736	0.2916184799199846
0.0	0.0	0	0	0	0	0	0	0	0	0	0	0	0	12	12	0.032726290767959736	0.2916184799199846
0.0	0.0	0	0	0	0	0	0	0	0	0	0	0	0	13	13	0.032726290767959736	0.2916184799199846
0.0	0.0	0	0	0	0	0	0	0	0	0	0	0	0	14	14	0.032726290767959736	0.2916184799199846
0.0	0.0	0	0	0	0	0	0	0	0	0	0	0	0	14	14	0.032726290767959736	0.2916184799199846
0.0	0.0	0	0	0	0	0	0	0	0	0	0	0	0	15	15	0.032726290767959736	0.2916184799199846
0.0	0.0	0	0	0	0	0	0	0	0	0	0	0	0	15	15	0.006911314953262875	0.2996682650265868
0.0	0.0	0	0	0	0	0	0	0	0	0	0	0	0	16	16	0.006911314953262875	0.2996682650265868
0.0	0.0	0	0	0	0	0	0	0	0	0	0	0	0	17	17	0.006911314953262875	0.2996682650265868
0.0	0.0	0	0	0	0	0	0	0	0	0	0	0	0	17	17	0.006911314953262875	0.2996682650265868
0.0	0.0	0	0	0	0	0	0	0	0	0	0	0	0	18	18	0.006911314953262875	0.2996682650265868
0.0	0.0	0	0	0	0	0	0	0	0	0	0	0	0	18	18	0.006911314953262875	0.2996682650265868
0.0	0.0	0	0	0	0	0	0	0	0	0	0	0	0	19	19	0.006911314953262875	0.2996682650265868
0.0	0.0	0	0	0	0	0	0	0	0	0	0	0	0	19	19	0.007029872472885114	0.28729421799889504
0.0	0.0	0	0	0	0	0	0	0	0	0	0	0	0	20	20	0.007029872472885114	0.28729421799889504
0.0	0.0	0	0	0	0	0	0	0	0	0	0	0	0	21	21	0.007029872472885114	0.28729421799889504
0.0	0.0	0	0	0	0	0	0	0	0	0	0	0	0	21	21	0.007029872472885114	0.28729421799889504
0.0	0.0	0	0	0	0	0	0	0	0	0	0	0	0	22	22	0.007029872472885114	0.28729421799889504
0.0	0.0	0	0	0	0	0	0	0	0	0	0	0	0	22	22	0.007029872472885114	0.28729421799889504
0.0	0.0	0	0	0	0	0	0	0	0	0	0	0	0	23	23	-0.02242267368792237	0.2560907639447496
0.0	0.0	0	0	0	0	0	0	0	0	0	0	0	0	24	24	-0.02242267368792237	0.2560907639447496
0.0	0.0	0	0	0	0	0	0	0	0	0	0	0	0	24	24	-0.02242267368792237	0.2560907639447496
0.0	0.0	0	0	0	0	0	0	0	0	0	0	0	0	25	25	-0.02242267368792237	0.2560907639447496
0.0	0.0	0	0	0	0	0	0	0	0	0	0	0	0	25	25	-0.02242267368792237	0.2560907639447496
0.0	0.0	0	0	0	0	0	0	0	0	0	0	0	0	26	26	-0.02242267368792237	0.2560907639447496
0.0	0.0	0	0	0	0	0	0	0	0	0	0	0	0	27	27	-0.02242267368792237	0.2560907639447496
0.0	0.0	0	0	0	0	0	0	0	0	0	0	0	0	27	27	-0.1055161296550854	0.20659167317805238
0.0	0.0	0	0	0	0	0	0	0	0	0	0	0	0	28	28	-0.1055161296550854	0.20659167317805238
0.0	0.0	0	0	0	0	0	0	0	0	0	0	0	0	28	28	-0.1055161296550854	0.20659167317805238
0.0	0.0	0	0	0	0	0	0	0	0	0	0	0	0	29	29	-0.1055161296550854	0.20659167317805238
0.0	0.0	0	0	0	0	0	0	0	0	0	0	0	0	29	29	-0.1055161296550854	0.20659167317805238
0.0	0.0	0	0	0	0	0	0	0	0	0	0	0	0	30	30	-0.1055161296550854	0.20659167317805238
0.0	0.0	0	0	0	0	0	0	0	0	0	0	0	0	31	31	-0.18484893710224912	0.124304311284298
0.0	0.0	0	0	0	0	0	0	0	0	0	0	0	0	31	31	-0.18484893710224912	0.124304311284298
0.0	0.0	0	0	0	0	0	0	0	0	0	0	0	0	32	32	-0.18484893710224912	0.124304311284298
0.0	0.0	0	0	0	0	0	0	0	0	0	0	0	0	32	32	-0.18484893710224912	0.124304311284298
0.0	0.0	0	0	0	0	0	0	0	0	0	0	0	0	33	33	-0.18484893710224912	0.124304311284298
0.0	0.0	0	0	0	0	0	0	0	0	0	0	0	0	34	34	-0.18484893710224912	0.124304311284298
0.0	0.0	0	0	0	0	0	0	0	0	0	0	0	0	34	34	-0.18484893710224912	0.124304311284298
0.0	0.0	0	0	0	0	0	0	0	0	0	0	0	0	35	35	-0.20502038582887738	0.08334578665850628
0.0	0.0	0	0	0	0	0	0	0	0	0	0	0	0	35	35	-0.20502038582887738	0.08334578665850628
0.0	0.0	0	0	0	0	0	0	0	0	0	0	0	0	36	36	-0.20502038582887738	0.08334578665850628
0.0	0.0	0	0	0	0	0	0	0	0	0	0	0	0	36	37	-0.20502038582887738	0.08334578665850628
0.0	0.0	0	0	0	0	0	0	0	0	0	0	0	0	37	37	-0.20502038582887738	0.08334578665850628
0.0	0.0	0	0	0	0	0	0	0	0	0	0	0	0	38	38	-0.20502038582887738	0.08334578665850628
0.0	0.0	0	0	0	0	0	0	0	0	0	0	0	0	38	38	-0.20502038582887738	0.08334578665850628
0.0	0.0	0	0	0	0	0	0	0	0	0	0	0	0	39	39	-0.22262107369171938	0.08058092201622793
0.0	0.0	0	0	0	0	0	0	0	0	0	0	0	0	39	39	-0.22262107369171938	0.08058092201622793
0.0	0.0	0	0	0	0	0	0	0	0	0	0	0	0	40	40	-0.22262107369171938	0.08058092201622793
0.0	0.0	0	0	0	0	0	0	0	0	0	0	0	0	41	41	-0.22262107369171938	0.08058092201622793
0.0	0.0	0	0	0	0	0	0	0	0	0	0	0	0	41	41	-0.22262107369171938	0.08058092201622793
0.0	0.0	0	0	0	0	0	0	0	0	0	0	0	0	42	42	-0.22262107369171938	0.08058092201622793
0.0	0.0	0	0	0	0	0	0	0	0	0	0	0	0	42	42	-0.23463107091671825	0.0746645769163435
0.0	0.0	0	0	0	0	0	0	0	0	0	0	0	0	43	43	-0.23463107091671825	0.0746645769163435
0.0	0.0	0	0	0	0	0	0	0	0	0	0	0	0	44	44	-0.23463107091671825	0.0746645769163435
0.0	0.0	0	0	0	0	0	0	0	0	0	0	0	0	44	44	-0.23463107091671825	0.0746645769163435
0.0	0.0	0	0	0	0	0	0	0	0	0	0	0	0	45	45	-0.23463107091671825	0.0746645769163435
0.0	0.0	0	0	0	0	0	0	0	0	0	0	0	0	45	45	-0.23463107091671825	0.0746645769163435
0.0	0.0	0	0	0	0	0	0	0	0	0	0	0	0	46	46	-0.23463107091671825	0.0746645769163435
0.0	0.0	0	0	0	0	0	0	0	0	0	0	0	0	47	47	-0.24106149885942105	0.07042344840611663
0.0	0.0	0	0	0	0	0	0	0	0	0	0	0	0	47	47	-0.24106149885942105	0.07042344840611663
0.0	0.0	0	0	0	0	0	0	0	0	0	0	0	0	48	48	-0.24218601911243215	0.06941099636614206
0.0	0.0	0	0	0	0	0	0	0	0	0	0	0	0	48	48	-0.24218601911243215	0.06941099636614206
0.0	0.0	0	0	0	0	0	0	0	0	0	0	0	0	49	49	-0.24218601911243215	0.06941099636614206
0.0	0.0	0	0	0	0	0	0	0	0	0	0	0	0	49	49	-0.24218601911243215	0.06941099636614206
0.0	0.0	0	0	0	0	0	0	0	0	0	0	0	0	50	50	-0.24218601911243215	0.06941099636614206
0.0	0.0	0	0	0	0	0	0	0	0	0	0	0	0	51	51	-0.24218601911243215	0.06941099636614206
0.0	0.0	0	0	0	0	0	0	0	0	0	0	0	0	51	51	-0.24453396060006694	0.06996624694583961
0.0	0.0	0	0	0	0	0	0	0	0	0	0	0	0	52	52	-0.24453396060006694	0.06996624694583961
0.0	0.0	0	0	0	0	0	0	0	0	0	0	0	0	52	52	-0.24453396060006694	0.06996624694583961
0.0	0.0	0	0	0	0	0	0	0	0	0	0	0	0	53	53	-0.24453396060006694	0.06996624694583961
0.0	0.0	0	0	0	0	0	0	0	0	0	0	0	0	54	54	-0.24453396060006694	0.06996624694583961
0.0	0.0	0	0	0	0	0	0	0	0	0	0	0	0	54	54	-0.24453396060006694	0.06996624694583961
0.0	0.0	0	0	0	0	0	0	0	0	0	0	0	0	55	55	-0.24348469200349993	0.07068350230299868
0.0	0.0	0	0	0	0	0	0	0	0	0	0	0	0	55	55	-0.24348469200349993	0.07068350230299868
0.0	0.0	0	0	0	0	0	0	0	0	0	0	0	0	56	56	-0.24348469200349993	0.07068350230299868
0.0	0.0	0	0	0	0	0	0	0	0	0	0	0	0	57	57	-0.24348469200349993	0.07068350230299868
0.0	0.0	0	0	0	0	0	0	0	0	0	0	0	0	57	57	-0.24348469200349993	0.07068350230299868
0.0	0.0	0	0	0	0	0	0	0	0	0	0	0	0	58	58	-0.24348469200349993	0.07068350230299868
0.0	0.0	0	0	0	0	0	0	0	0	0	0	0	0	58	58	-0.24348469200349993	0.07068350230299868
0.0	0.0	0	0	0	0	0	0	0	0	0	0	0	0	59	59	-0.23830723803465664	0.07047331235292359
0.0	0.0	0	0	0	0	0	0	0	0	0	0	0	0	59	59	-0.23830723803465664	0.07047331235292359
0.0	0.0	0	0	0	0	0	0	0	0	0	0	0	0	60	60	-0.23830723803465664	0.07047331235292359
0.0	0.0	0	0	0	0	0	0	0	0	0	0	0	0	61	61	-0.23830723803465664	0.07047331235292359
0.0	0.0	0	0	0	0	0	0	0	0	0	0	0	0	61	61	-0.23830723803465664	0.07047331235292359
0.0	0.0	0	0	0	0	0	0	0	0	0	0	0	0	62	62	-0.23830723803465664	0.07047331235292359
0.0	0.0	0	0	0	0	0	0	0	0	0	0	0	0	62	62	0.0001313565559351998	0.29444609612721956
0.0	0.0	0	0	0	0	0	0	0	0	0	0	0	0	0	0	0.0001313565559351998	0.29444609612721956
0.0	0.0	0	0	0	0	0	0	0	0	0	0	0	0	0	0	0.0001313565559351998	0.29444609612721956
0.0	0.0	0	0	0	0	0	0	0	0	0	0	0	0	0	0	0.0001313565559351998	0.29444609612721956
0.0	0.0	0	0	0	0	0	0	0	0	0	0	0	0	0	0	0.0001313565559351998	0.29444609612721956
0.0	0.0	0	0	0	0	0	0	0	0	0	0	0	0	0	0	0.0001313565559351998	0.29444609612721956
0.0	0.0	0	0	0	0	0	0	0	0	0	0	0	0	0	0	0.0001313565559351998	0.29444609612721956
0.0	0.0	0	0	0	0	0	0	0	0	0	0	0	0	3	3	-0.03323182678278525	0.3044039349394133
0.0	0.0	0	0	0	0	0	0	0	0	0	0	0	0	3	3	-0.03323182678278525	0.3044039349394133
0.0	0.0	0	0	0	0	0	0	0	0	0	0	0	0	4	4	-0.029609428445786387	0.30293962503889
0.0	0.0	0	0	0	0	0	0	0	0	0	0	0	0	4	4	-0.029609428445786387	0.30293962503889
0.0	0.0	0	0	0	0	0	0	0	0	0	0	0	0	5	5	-0.029609428445786387	0.30293962503889
0.0	0.0	0	0	0	0	0	0	0	0	0	0	0	0	5	5	-0.029609428445786387	0.30293962503889
0.0	0.0	0	0	0	0	0	0	0	0	0	0	0	0	6	6	-0.029609428445786387	0.30293962503889
0.0	0.0	0	0	0	0	0	0	0	0	0	0	0	0	7	7	-0.029609428445786387	0.30293962503889
0.0	0.0	0	0	0	0	0	0	0	0	0	0	0	0	7	7	-0.029609428445786387	0.30293962503889
0.0	0.0	0	0	0	0	0	0	0	0	0	0	0	0	8	8	0.010105723123384015	0.27220502850893785
0.0	0.0	0	0	0	0	0	0	0	0	0	0	0	0	8	8	0.010105723123384015	0.27220502850893785
0.0	0.0	0	0	0	0	0	0	0	0	0	0	0	0	9	9	0.010105723123384015	0.27220502850893785
0.0	0.0	0	0	0	0	0	0	0	0	0	0	0	0	10	10	0.010105723123384015	0.27220502850893785
0.0	0.0	0	0	0	0	0	0	0	0	0	0	0	0	10	10	0.010105723123384015	0.27220502850893785
0.0	0.0	0	0	0	0	0	0	0	0	0	0	0	0	11	11	0.010105723123384015	0.27220502850893785
0.0	0.0	0	0	0	0	0	0	0	0	0	0	0	0	11	11	0.010105723123384015	0.27220502850893785
0.0	0.0	0	0	0	0	0	0	0	0	0	0	0	0	12	12	0.022407625134661296	0.27939708079450293
0.0	0.0	0	0	0	0	0	0	0	0	0	0	0	0	13	13	0.022407625134661296	0.27939708079450293
0.0	0.0	0	0	0	0	0	0	0	0	0	0	0	0	13	13	0.022407625134661296	0.27939708079450293
0.0	0.0	0	0	0	0	0	0	0	0	0	0	0	0	14	14	0.022407625134661296	0.27939708079450293
0.0	0.0	0	0	0	0	0	0	0	0	0	0	0	0	14	14	0.022407625134661296	0.27939708079450293
0.0	0.0	0	0	0	0	0	0	0	0	0	0	0	0	15	15	0.022407625134661296	0.27939708079450293
0.0	0.0	0	0	0	0	0	0	0	0	0	0	0	0	16	16	-0.018961128931183797	0.28260338243917704
0.0	0.0	0	0	0	0	0	0	0	0	0	0	0	0	16	16	-0.018961128931183797	0.28260338243917704
0.0	0.0	0	0	0	0	0	0	0	0	0	0	0	0	17	17	-0.018961128931183797	0.28260338243917704
0.0	0.0	0	0	0	0	0	0	0	0	0	0	0	0	17	17	-0.018961128931183797	0.28260338243917704
0.0	0.0	0	0	0	0	0	0	0	0	0	0	0	0	18	18	-0.018961128931183797	0.28260338243917704
0.0	0.0	0	0	0	0	0	0	0	0	0	0	0	0	18	18	-0.018961128931183797	0.28260338243917704
0.0	0.0	0	0	0	0	0	0	0	0	0	0	0	0	19	19	-0.018961128931183797	0.28260338243917704
0.0	0.0	0	0	0	0	0	0	0	0	0	0	0	0	20	20	-0.036248416441667416	0.2709144240734708
0.0	0.0	0	0	0	0	0	0	0	0	0	0	0	0	20	20	-0.04023316721414294	0.2577188116194252
0.0	0.0	0	0	0	0	0	0	0	0	0	0	0	0	21	21	-0.04023316721414294	0.2577188116194252
0.0	0.0	0	0	0	0	0	0	0	0	0	0	0	0	21	21	-0.04023316721414294	0.2577188116194252
0.0	0.0	0	0	0	0	0	0	0	0	0	0	0	0	22	22	-0.04023316721414294	0.2577188116194252
0.0	0.0	0	0	0	0	0	0	0	0	0	0	0	0	23	23	-0.04023316721414294	0.2577188116194252
0.0	0.0	0	0	0	0	0	0	0	0	0	0	0	0	23	23	-0.04023316721414294	0.2577188116194252
0.0	0.0	0	0	0	0	0	0	0	0	0	0	0	0	24	24	-0.04023316721414294	0.2577188116194252
0.0	0.0	0	0	0	0	0	0	0	0	0	0	0	0	24	24	-0.07784325750998072	0.21601013308452424
0.0	0.0	0	0	0	0	0	0	0	0	0	0	0	0	25	25	-0.07784325750998072	0.21601013308452424
0.0	0.0	0	0	0	0	0	0	0	0	0	0	0	0	26	26	-0.07784325750998072	0.21601013308452424
0.0	0.0	0	0	0	0	0	0	0	0	0	0	0	0	26	26	-0.07784325750998072	0.21601013308452424
0.0	0.0	0	0	0	0	0	0	0	0	0	0	0	0	27	27	-0.07784325750998072	0.21601013308452424
0.0	0.0	0	0	0	0	0	0	0	0	0	0	0	0	27	27	-0.07784325750998072	0.21601013308452424
0.0	0.0	0	0	0	0	0	0	0	0	0	0	0	0	28	28	-0.07784325750998072	0.21601013308452424
0.0	0.0	0	0	0	0	0	0	0	0	0	0	0	0	28	28	-0.14713795852347572	0.14330759323801417
0.0	0.0	0	0	0	0	0	0	0	0	0	0	0	0	29	29	-0.14713795852347572	0.14330759323801417
0.0	0.0	0	0	0	0	0	0	0	0	0	0	0	0	30	30	-0.14713795852347572	0.14330759323801417
0.0	0.0	0	0	0	0	0	0	0	0	0	0	0	0	30	30	-0.14713795852347572	0.14330759323801417
0.0	0.0	0	0	0	0	0	0	0	0	0	0	0	0	31	31	-0.14713795852347572	0.14330759323801417
0.0	0.0	0	0	0	0	0	0	0	0	0	0	0	0	31	31	-0.14713795852347572	0.14330759323801417
0.0	0.0	0	0	0	0	0	0	0	0	0	0	0	0	32	32	-0.16550471627969027	0.08796524138669139
0.0	0.0	0	0	0	0	0	0	0	0	0	0	0	0	33	33	-0.16550471627969027	0.08796524138669139
0.0	0.0	0	0	0	0	0	0	0	0	0	0	0	0	33	33	-0.16550471627969027	0.08796524138669139
0.0	0.0	0	0	0	0	0	0	0	0	0	0	0	0	34	34	-0.16550471627969027	0.08796524138669139
0.0	0.0	0	0	0	0	0	0	0	0	0	0	0	0	34	34	-0.16550471627969027	0.08796524138669139
0.0	0.0	0	0	0	0	0	0	0	0	0	0	0	0	35	35	-0.16550471627969027	0.08796524138669139
0.0	0.0	0	0	0	0	0	0	0	0	0	0	0	0	36	36	-0.16550471627969027	0.08796524138669139
0.0	0.0	0	0	0	0	0	0	0	0	0	0	0	0	36	36	-0.18017441737051723	0.0803222889725555
0.0	0.0	0	0	0	0	0	0	0	0	0	0	0	0	37	37	-0.18017441737051723	0.0803222889725555
0.0	0.0	0	0	0	0	0	0	0	0	0	0	0	0	37	37	-0.18017441737051723	0.0803222889725555
0.0	0.0	0	0	0	0	0	0	0	0	0	0	0	0	38	38	-0.18017441737051723	0.0803222889725555
0.0	0.0	0	0	0	0	0	0	0	0	0	0	0	0	38	38	-0.18017441737051723	0.0803222889725555
0.0	0.0	0	0	0	0	0	0	0	0	0	0	0	0	39	39	-0.18017441737051723	0.0803222889725555
0.0	0.0	0	0	0	0	0	0	0	0	0	0	0	0	40	40	-0.18017441737051723	0.0803222889725555
0.0	0.0	0	0	0	0	0	0	0	0	0	0	0	0	40	40	-0.19110668173021708	0.07569098187433058
0.0	0.0	0	0	0	0	0	0	0	0	0	0	0	0	41	41	-0.19110668173021708	0.07569098187433058
0.0	0.0	0	0	0	0	0	0	0	0	0	0	0	0	41	41	-0.19110668173021708	0.07569098187433058
0.0	0.0	0	0	0	0	0	0	0	0	0	0	0	0	42	42	-0.19110668173021708	0.07569098187433058
0.0	0.0	0	0	0	0	0	0	0	0	0	0	0	0	43	43	-0.19110668173021708	0.07569098187433058
0.0	0.0	0	0	0	0	0	0	0	0	0	0	0	0	43	43	-0.19110668173021708	0.07569098187433058
0.0	0.0	0	0	0	0	0	0	0	0	0	0	0	0	44	44	-0.19866697142329415	0.07047140013611822
0.0	0.0	0	0	0	0	0	0	0	0	0	0	0	0	44	44	-0.19866697142329415	0.07047140013611822
0.0	0.0	0	0	0	0	0	0	0	0	0	0	0	0	45	45	-0.19866697142329415	0.07047140013611822
0.0	0.0	0	0	0	0	0	0	0	0	0	0	0	0	46	46	-0.19866697142329415	0.07047140013611822
0.0	0.0	0	0	0	0	0	0	0	0	0	0	0	0	46	46	-0.19866697142329415	0.07047140013611822
0.0	0.0	0	0	0	0	0	0	0	0	0	0	0	0	47	47	-0.19866697142329415	0.07047140013611822
0.0	0.0	0	0	0	0	0	0	0	0	0	0	0	0	47	47	-0.19866697142329415	0.07047140013611822
0.0	0.0	0	0	0	0	0	0	0	0	0	0	0	0	48	48	-0.20215906325206343	0.06891474589965685
0.0	0.0	0	0	0	0	0	0	0	0	0	0	0	0	48	48	-0.20215906325206343	0.06891474589965685
0.0	0.0	0	0	0	0	0	0	0	0	0	0	0	0	49	49	-0.20215906325206343	0.06891474589965685
0.0	0.0	0	0	0	0	0	0	0	0	0	0	0	0	50	50	-0.20215906325206343	0.06891474589965685
0.0	0.0	0	0	0	0	0	0	0	0	0	0	0	0	50	50	-0.20215906325206343	0.06891474589965685
0.0	0.0	0	0	0	0	0	0	0	0	0	0	0	0	51	51	-0.20215906325206343	0.06891474589965685
0.0	0.0	0	0	0	0	0	0	0	0	0	0	0	0	51	51	-0.20215906325206343	0.06891474589965685
0.0	0.0	0	0	0	0	0	0	0	0	0	0	0	0	52	52	-0.20102455723941312	0.0656969550697787
0.0	0.0	0	0	0	0	0	0	0	0	0	0	0	0	53	53	-0.20102455723941312	0.0656969550697787
0.0	0.0	0	0	0	0	0	0	0	0	0	0	0	0	53	53	-0.20102455723941312	0.0656969550697787
0.0	0.0	0	0	0	0	0	0	0	0	0	0	0	0	54	54	-0.20102455723941312	0.0656969550697787
0.0	0.0	0	0	0	0	0	0	0	0	0	0	0	0	54	54	-0.20102455723941312	0.0656969550697787
0.0	0.0	0	0	0	0	0	0	0	0	0	0	0	0	55	55	-0.20102455723941312	0.0656969550697787
0.0	0.0	0	0	0	0	0	0	0	0	0	0	0	0	55	55	-0.20102455723941312	0.0656969550697787
0.0	0.0	0	0	0	0	0	0	0	0	0	0	0	0	56	56	-0.19619604777716915	0.08092198768338983
0.0	0.0	0	0	0	0	0	0	0	0	0	0	0	0	57	57	-0.19619604777716915	0.08092198768338983
0.0	0.0	0	0	0	0	0	0	0	0	0	0	0	0	57	57	-0.19619604777716915	0.08092198768338983
0.0	0.0	0	0	0	0	0	0	0	0	0	0	0	0	58	58	-0.19619604777716915	0.08092198768338983
0.0	0.0	0	0	0	0	0	0	0	0	0	0	0	0	58	58	-0.19619604777716915	0.08092198768338983
0.0	0.0	0	0	0	0	0	0	0	0	0	0	0	0	59	59	-0.19619604777716915	0.08092198768338983
0.0	0.0	0	0	0	0	0	0	0	0	0	0	0	0	60	60	-0.19881049724165287	0.08115699227858714
0.0	0.0	0	0	0	0	0	0	0	0	0	0	0	0	60	60	-0.19881049724165287	0.08115699227858714
0.0	0.0	0	0	0	0	0	0	0	0	0	0	0	0	61	61	-0.19881049724165287	0.08115699227858714
0.0	0.0	0	0	0	0	0	0	0	0	0	0	0	0	61	61	-0.19881049724165287	0.08115699227858714
0.0	0.0	0	0	0	0	0	0	0	0	0	0	0	0	62	62	-0.19881049724165287	0.08115699227858714
0.0	0.0	0	0	0	0	0	0	0	0	0	0	0	0	0	0	-0.19881049724165287	0.08115699227858714
0.0	0.0	0	0	0	0	0	0	0	0	0	0	0	0	0	0	0.0009721310668742641	0.2948865826614196
0.0	0.0	0	0	0	0	0	0	0	0	0	0	0	0	0	0	0.003917633586738252	0.29642334116000274
0.0	0.0	0	0	0	0	0	0	0	0	0	0	0	0	0	0	0.015447449929157597	0.3015914655567262
0.0	0.0	0	0	0	0	0	0	0	0	0	0	0	0	1	0	0.015447449929157597	0.3015914655567262
0.0	0.0	0	0	0	0	0	0	0	0	0	0	0	0	2	0	0.015447449929157597	0.3015914655567262
0.0	0.0	0	0	0	0	0	0	0	0	0	0	0	0	2	3	0.015447449929157597	0.3015914655567262
0.0	0.0	0	0	0	0	0	0	0	0	0	0	0	0	3	4	0.015447449929157597	0.3015914655567262
0.0	0.0	0	0	0	0	0	0	0	0	0	0	0	0	3	4	0.015447449929157597	0.3015914655567262
0.0	0.0	0	0	0	0	0	0	0	0	0	0	0	0	4	5	0.015447449929157597	0.3015914655567262
0.0	0.0	0	0	0	0	0	0	0	0	0	0	0	0	4	5	0.050638675505254735	0.3049243922963146
0.0	0.0	0	0	0	0	0	0	0	0	0	0	0	0	5	6	0.050638675505254735	0.3049243922963146
0.0	0.0	0	0	0	0	0	0	0	0	0	0	0	0	6	7	0.050638675505254735	0.3049243922963146
0.0	0.0	0	0	0	0	0	0	0	0	0	0	0	0	6	7	0.050638675505254735	0.3049243922963146
0.0	0.0	0	0	0	0	0	0	0	0	0	0	0	0	7	8	0.050638675505254735	0.3049243922963146
0.0	0.0	0	0	0	0	0	0	0	0	0	0	0	0	7	8	0.050638675505254735	0.3049243922963146
0.0	0.0	0	0	0	0	0	0	0	0	0	0	0	0	8	9	0.050638675505254735	0.3049243922963146
0.0	0.0	0	0	0	0	0	0	0	0	0	0	0	0	9	10	0.07833959855467976	0.2958561233499465
0.0	0.0	0	0	0	0	0	0	0	0	0	0	0	0	9	10	0.07833959855467976	0.2958561233499465
0.0	0.0	0	0	0	0	0	0	0	0	0	0	0	0	10	11	0.07833959855467976	0.2958561233499465
0.0	0.0	0	0	0	0	0	0	0	0	0	0	0	0	10	11	0.07833959855467976	0.2958561233499465
0.0	0.0	0	0	0	0	0	0	0	0	0	0	0	0	11	12	0.07833959855467976	0.2958561233499465
0.0	0.0	0	0	0	0	0	0	0	0	0	0	0	0	12	12	0.07833959855467976	0.2958561233499465
0.0	0.0	0	0	0	0	0	0	0	0	0	0	0	0	12	13	0.11670191666494546	0.285945491890618
0.0	0.0	0	0	0	0	0	0	0	0	0	0	0	0	13	14	0.11670191666494546	0.285945491890618
0.0	0.0	0	0	0	0	0	0	0	0	0	0	0	0	13	14	0.11670191666494546	0.285945491890618
0.0	0.0	0	0	0	0	0	0	0	0	0	0	0	0	14	15	0.11670191666494546	0.285945491890618
0.0	0.0	0	0	0	0	0	0	0	0	0	0	0	0	14	15	0.11670191666494546	0.285945491890618
0.0	0.0	0	0	0	0	0	0	0	0	0	0	0	0	15	16	0.11670191666494546	0.285945491890618
0.0	0.0	0	0	0	0	0	0	0	0	0	0	0	0	16	17	0.11670191666494546	0.285945491890618
0.0	0.0	0	0	0	0	0	0	0	0	0	0	0	0	16	17	0.16766486569395234	0.2656486293610554
0.0	0.0	0	0	0	0	0	0	0	0	0	0	0	0	17	18	0.16766486569395234	0.2656486293610554
0.0	0.0	0	0	0	0	0	0	0	0	0	0	0	0	17	18	0.16766486569395234	0.2656486293610554
0.0	0.0	0	0	0	0	0	0	0	0	0	0	0	0	18	19	0.16766486569395234	0.2656486293610554
0.0	0.0	0	0	0	0	0	0	0	0	0	0	0	0	19	20	0.16766486569395234	0.2656486293610554
0.0	0.0	0	0	0	0	0	0	0	0	0	0	0	0	19	20	0.16766486569395234	0.2656486293610554
0.0	0.0	0	0	0	0	0	0	0	0	0	0	0	0	20	21	0.2226118299247528	0.23808489637226105
0.0	0.0	0	0	0	0	0	0	0	0	0	0	0	0	20	21	0.2226118299247528	0.23808489637226105
0.0	0.0	0	0	0	0	0	0	0	0	0	0	0	0	21	22	0.2226118299247528	0.23808489637226105
0.0	0.0	0	0	0	0	0	0	0	0	0	0	0	0	21	22	0.2226118299247528	0.23808489637226105
0.0	0.0	0	0	0	0	0	0	0	0	0	0	0	0	22	23	0.2226118299247528	0.23808489637226105
0.0	0.0	0	0	0	0	0	0	0	0	0	0	0	0	23	24	0.2226118299247528	0.23808489637226105
0.0	0.0	0	0	0	0	0	0	0	0	0	0	0	0	23	24	0.2226118299247528	0.23808489637226105
0.0	0.0	0	0	0	0	0	0	0	0	0	0	0	0	24	25	0.29187269468614774	0.19517123743015335
0.0	0.0	0	0	0	0	0	0	0	0	0	0	0	0	24	25	0.29187269468614774	0.19517123743015335
0.0	0.0	0	0	0	0	0	0	0	0	0	0	0	0	25	26	0.29187269468614774	0.19517123743015335
0.0	0.0	0	0	0	0	0	0	0	0	0	0	0	0	26	27	0.29187269468614774	0.19517123743015335
0.0	0.0	0	0	0	0	0	0	0	0	0	0	0	0	26	27	0.29187269468614774	0.19517123743015335
0.0	0.0	0	0	0	0	0	0	0	0	0	0	0	0	27	28	0.29187269468614774	0.19517123743015335
0.0	0.0	0	0	0	0	0	0	0	0	0	0	0	0	27	28	0.3604853048190791	0.10540295705396818
0.0	0.0	0	0	0	0	0	0	0	0	0	0	0	0	28	29	0.3604853048190791	0.10540295705396818
0.0	0.0	0	0	0	0	0	0	0	0	0	0	0	0	29	30	0.3642299268315719	0.08487633143145071
0.0	0.0	0	0	0	0	0	0	0	0	0	0	0	0	29	30	0.3642299268315719	0.08487633143145071
0.0	0.0	0	0	0	0	0	0	0	0	0	0	0	0	30	31	0.3642299268315719	0.08487633143145071
0.0	0.0	0	0	0	0	0	0	0	0	0	0	0	0	30	31	0.3642299268315719	0.08487633143145071
0.0	0.0	0	0	0	0	0	0	0	0	0	0	0	0	31	32	0.3642299268315719	0.08487633143145071
0.0	0.0	0	0	0	0	0	0	0	0	0	0	0	0	31	32	0.3642299268315719	0.08487633143145071
0.0	0.0	0	0	0	0	0	0	0	0	0	0	0	0	32	33	0.3642299268315719	0.08487633143145071
0.0	0.0	0	0	0	0	0	0	0	0	0	0	0	0	33	34	0.3569326142361903	0.07085596800317787
0.0	0.0	0	0	0	0	0	0	0	0	0	0	0	0	33	34	0.3569326142361903	0.07085596800317787
0.0	0.0	0	0	0	0	0	0	0	0	0	0	0	0	34	35	0.3569326142361903	0.07085596800317787
0.0	0.0	0	0	0	0	0	0	0	0	0	0	0	0	34	35	0.3569326142361903	0.07085596800317787
0.0	0.0	0	0	0	0	0	0	0	0	0	0	0	0	35	36	0.3569326142361903	0.07085596800317787
0.0	0.0	0	0	0	0	0	0	0	0	0	0	0	0	36	37	0.3569326142361903	0.07085596800317787
0.0	0.0	0	0	0	0	0	0	0	0	0	0	0	0	36	37	0.3443979959451838	0.07209757347465806
0.0	0.0	0	0	0	0	0	0	0	0	0	0	0	0	37	38	0.3443979959451838	0.07209757347465806
0.0	0.0	0	0	0	0	0	0	0	0	0	0	0	0	37	38	0.34121301156978917	0.06883652535550243
0.0	0.0	0	0	0	0	0	0	0	0	0	0	0	0	38	39	0.34121301156978917	0.06883652535550243
0.0	0.0	0	0	0	0	0	0	0	0	0	0	0	0	39	40	0.34121301156978917	0.06883652535550243
0.0	0.0	0	0	0	0	0	0	0	0	0	0	0	0	39	40	0.34121301156978917	0.06883652535550243
0.0	0.0	0	0	0	0	0	0	0	0	0	0	0	0	40	41	0.34121301156978917	0.06883652535550243
0.0	0.0	0	0	0	0	0	0	0	0	0	0	0	0	40	41	0.34121301156978917	0.06883652535550243
0.0	0.0	0	0	0	0	0	0	0	0	0	0	0	0	41	42	0.3302579789708278	0.05431082232750433
0.0	0.0	0	0	0	0	0	0	0	0	0	0	0	0	41	42	0.3302579789708278	0.05431082232750433
0.0	0.0	0	0	0	0	0	0	0	0	0	0	0	0	42	43	0.3302579789708278	0.05431082232750433
0.0	0.0	0	0	0	0	0	0	0	0	0	0	0	0	43	44	0.3302579789708278	0.05431082232750433
0.0	0.0	0	0	0	0	0	0	0	0	0	0	0	0	43	44	0.3302579789708278	0.05431082232750433
0.0	0.0	0	0	0	0	0	0	0	0	0	0	0	0	44	45	0.3302579789708278	0.05431082232750433
0.0	0.0	0	0	0	0	0	0	0	0	0	0	0	0	44	45	0.3302579789708278	0.05431082232750433
0.0	0.0	0	0	0	0	0	0	0	0	0	0	0	0	45	46	0.32699110224311634	0.06731709880568454
0.0	0.0	0	0	0	0	0	0	0	0	0	0	0	0	46	47	0.32699110224311634	0.06731709880568454
0.0	0.0	0	0	0	0	0	0	0	0	0	0	0	0	46	47	0.32699110224311634	0.06731709880568454
0.0	0.0	0	0	0	0	0	0	0	0	0	0	0	0	47	48	0.32699110224311634	0.06731709880568454
0.0	0.0	0	0	0	0	0	0	0	0	0	0	0	0	47	48	0.32699110224311634	0.06731709880568454
0.0	0.0	0	0	0	0	0	0	0	0	0	0	0	0	48	49	0.32699110224311634	0.06731709880568454
0.0	0.0	0	0	0	0	0	0	0	0	0	0	0	0	49	50	0.3213271670426691	0.07862258345568396
0.0	0.0	0	0	0	0	0	0	0	0	0	0	0	0	49	50	0.3213271670426691	0.07862258345568396
0.0	0.0	0	0	0	0	0	0	0	0	0	0	0	0	50	51	0.3213271670426691	0.07862258345568396
0.0	0.0	0	0	0	0	0	0	0	0	0	0	0	0	50	51	0.3213271670426691	0.07862258345568396
0.0	0.0	0	0	0	0	0	0	0	0	0	0	0	0	51	52	0.3213271670426691	0.07862258345568396
0.0	0.0	0	0	0	0	0	0	0	0	0	0	0	0	52	53	0.3213271670426691	0.07862258345568396
0.0	0.0	0	0	0	0	0	0	0	0	0	0	0	0	52	53	0.3213271670426691	0.07862258345568396
0.0	0.0	0	0	0	0	0	0	0	0	0	0	0	0	53	54	0.31880553144692025	0.09076636533936996
0.0	0.0	0	0	0	0	0	0	0	0	0	0	0	0	53	54	0.31880553144692025	0.09076636533936996
0.0	0.0	0	0	0	0	0	0	0	0	0	0	0	0	54	55	0.31880553144692025	0.09076636533936996
0.0	0.0	0	0	0	0	0	0	0	0	0	0	0	0	54	55	0.31880553144692025	0.09076636533936996
0.0	0.0	0	0	0	0	0	0	0	0	0	0	0	0	55	56	0.31880553144692025	0.09076636533936996
0.0	0.0	0	0	0	0	0	0	0	0	0	0	0	0	56	57	0.31880553144692025	0.09076636533936996
0.0	0.0	0	0	0	0	0	0	0	0	0	0	0	0	56	57	0.31880553144692025	0.09076636533936996
0.0	0.0	0	0	0	0	0	0	0	0	0	0	0	0	57	58	0.31627010104162223	0.09828141661109568
0.0	0.0	0	0	0	0	0	0	0	0	0	0	0	0	57	58	0.31627010104162223	0.09828141661109568
0.0	0.0	0	0	0	0	0	0	0	0	0	0	0	0	58	59	0.31627010104162223	0.09828141661109568
0.0	0.0	0	0	0	0	0	0	0	0	0	0	0	0	59	60	0.31627010104162223	0.09828141661109568
0.0	0.0	0	0	0	0	0	0	0	0	0	0	0	0	59	60	0.31627010104162223	0.09828141661109568
0.0	0.0	0	0	0	0	0	0	0	0	0	0	0	0	60	61	0.31627010104162223	0.09828141661109568
0.0	0.0	0	0	0	0	0	0	0	0	0	0	0	0	60	61	0.31627010104162223	0.09828141661109568
0.0	0.0	0	0	0	0	0	0	0	0	0	0	0	0	61	62	0.31407522841588065	0.1022026119279128
0.0	0.0	0	0	0	0	0	0	0	0	0	0	0	0	0	0	0.31407522841588065	0.1022026119279128
0.0	0.0	0	0	0	0	0	0	0	0	0	0	0	0	0	0	0.31407522841588065	0.1022026119279128
0.0	0.0	0	0	0	0	0	0	0	0	0	0	0	0	0	1	0.31407522841588065	0.1022026119279128
0.0	0.0	0	0	0	0	0	0	0	0	0	0	0	0	0	1	0.31407522841588065	0.1022026119279128
0.0	0.0	0	0	0	0	0	0	0	0	0	0	0	0	1	2	0.31407522841588065	0.1022026119279128
0.0	0.0	0	0	0	0	0	0	0	0	0	0	0	0	1	2	0.0318457059413821	0.3072198071869177
0.0	0.0	0	0	0	0	0	0	0	0	0	0	0	0	2	3	0.0318457059413821	0.3072198071869177
0.0	0.0	0	0	0	0	0	0	0	0	0	0	0	0	3	4	0.045614446593615646	0.30858568300511796
0.0	0.0	0	0	0	0	0	0	0	0	0	0	0	0	3	4	0.045614446593615646	0.30858568300511796
0.0	0.0	0	0	0	0	0	0	0	0	0	0	0	0	4	5	0.045614446593615646	0.30858568300511796
0.0	0.0	0	0	0	0	0	0	0	0	0	0	0	0	4	5	0.045614446593615646	0.30858568300511796
0.0	0.0	0	0	0	0	0	0	0	0	0	0	0	0	5	6	0.045614446593615646	0.30858568300511796
0.0	0.0	0	0	0	0	0	0	0	0	0	0	0	0	6	7	0.045614446593615646	0.30858568300511796
0.0	0.0	0	0	0	0	0	0	0	0	0	0	0	0	6	7	0.0845625228845931	0.28561180487887916
0.0	0.0	0	0	0	0	0	0	0	0	0	0	0	0	7	8	0.0845625228845931	0.28561180487887916
0.0	0.0	0	0	0	0	0	0	0	0	0	0	0	0	7	8	0.0845625228845931	0.28561180487887916
0.0	0.0	0	0	0	0	0	0	0	0	0	0	0	0	8	9	0.0845625228845931	0.28561180487887916
0.0	0.0	0	0	0	0	0	0	0	0	0	0	0	0	8	9	0.0845625228845931	0.28561180487887916
0.0	0.0	0	0	0	0	0	0	0	0	0	0	0	0	9	10	0.0845625228845931	0.28561180487887916
0.0	0.0	0	0	0	0	0	0	0	0	0	0	0	0	10	11	0.0845625228845931	0.28561180487887916
0.0	0.0	0	0	0	0	0	0	0	0	0	0	0	0	10	11	0.10960925708151847	0.2810550878875973
0.0	0.0	0	0	0	0	0	0	0	0	0	0	0	0	11	12	0.10960925708151847	0.2810550878875973
0.0	0.0	0	0	0	0	0	0	0	0	0	0	0	0	11	12	0.10960925708151847	0.2810550878875973
0.0	0.0	0	0	0	0	0	0	0	0	0	0	0	0	12	13	0.10960925708151847	0.2810550878875973
0.0	0.0	0	0	0	0	0	0	0	0	0	0	0	0	13	14	0.10960925708151847	0.2810550878875973
0.0	0.0	0	0	0	0	0	0	0	0	0	0	0	0	13	14	0.10960925708151847	0.2810550878875973
0.0	0.0	0	0	0	0	0	0	0	0	0	0	0	0	14	15	0.10960925708151847	0.2810550878875973
0.0	0.0	0	0	0	0	0	0	0	0	0	0	0	0	14	15	0.10119191237954604	0.27383863713946555
0.0	0.0	0	0	0	0	0	0	0	0	0	0	0	0	15	16	0.10119191237954604	0.27383863713946555
0.0	0.0	0	0	0	0	0	0	0	0	0	0	0	0	16	17	0.10119191237954604	0.27383863713946555
0.0	0.0	0	0	0	0	0	0	0	0	0	0	0	0	16	17	0.10119191237954604	0.27383863713946555
0.0	0.0	0	0	0	0	0	0	0	0	0	0	0	0	17	18	0.10119191237954604	0.27383863713946555
0.0	0.0	0	0	0	0	0	0	0	0	0	0	0	0	17	18	0.10119191237954604	0.27383863713946555
0.0	0.0	0	0	0	0	0	0	0	0	0	0	0	0	18	19	0.13639621109558084	0.2575843108110319
0.0	0.0	0	0	0	0	0	0	0	0	0	0	0	0	19	20	0.13639621109558084	0.2575843108110319
0.0	0.0	0	0	0	0	0	0	0	0	0	0	0	0	19	20	0.13639621109558084	0.2575843108110319
0.0	0.0	0	0	0	0	0	0	0	0	0	0	0	0	20	21	0.13639621109558084	0.2575843108110319
0.0	0.0	0	0	0	0	0	0	0	0	0	0	0	0	20	21	0.13639621109558084	0.2575843108110319
0.0	0.0	0	0	0	0	0	0	0	0	0	0	0	0	21	22	0.13639621109558084	0.2575843108110319
0.0	0.0	0	0	0	0	0	0	0	0	0	0	0	0	21	22	0.13639621109558084	0.2575843108110319
0.0	0.0	0	0	0	0	0	0	0	0	0	0	0	0	22	23	0.19149049455986455	0.22147632271378553
0.0	0.0	0	0	0	0	0	0	0	0	0	0	0	0	23	24	0.19149049455986455	0.22147632271378553
0.0	0.0	0	0	0	0	0	0	0	0	0	0	0	0	23	24	0.19149049455986455	0.22147632271378553
0.0	0.0	0	0	0	0	0	0	0	0	0	0	0	0	24	25	0.19149049455986455	0.22147632271378553
0.0	0.0	0	0	0	0	0	0	0	0	0	0	0	0	24	25	0.19149049455986455	0.22147632271378553
0.0	0.0	0	0	0	0	0	0	0	0	0	0	0	0	25	26	0.19149049455986455	0.22147632271378553
0.0	0.0	0	0	0	0	0	0	0	0	0	0	0	0	26	27	0.25064719311355604	0.1559599485876001
0.0	0.0	0	0	0	0	0	0	0	0	0	0	0	0	26	27	0.25064719311355604	0.1559599485876001
0.0	0.0	0	0	0	0	0	0	0	0	0	0	0	0	27	28	0.25064719311355604	0.1559599485876001
0.0	0.0	0	0	0	0	0	0	0	0	0	0	0	0	27	28	0.25064719311355604	0.1559599485876001
0.0	0.0	0	0	0	0	0	0	0	0	0	0	0	0	28	29	0.25064719311355604	0.1559599485876001
0.0	0.0	0	0	0	0	0	0	0	0	0	0	0	0	28	29	0.25064719311355604	0.1559599485876001
0.0	0.0	0	0	0	0	0	0	0	0	0	0	0	0	29	30	0.25064719311355604	0.1559599485876001
0.0	0.0	0	0	0	0	0	0	0	0	0	0	0	0	30	31	0.2880924343630215	0.11455772606920003
0.0	0.0	0	0	0	0	0	0	0	0	0	0	0	0	30	31	0.2880924343630215	0.11455772606920003
0.0	0.0	0	0	0	0	0	0	0	0	0	0	0	0	31	32	0.2880924343630215	0.11455772606920003
0.0	0.0	0	0	0	0	0	0	0	0	0	0	0	0	31	32	0.2880924343630215	0.11455772606920003
0.0	0.0	0	0	0	0	0	0	0	0	0	0	0	0	32	33	0.2880924343630215	0.11455772606920003
0.0	0.0	0	0	0	0	0	0	0	0	0	0	0	0	33	34	0.2880924343630215	0.11455772606920003
0.0	0.0	0	0	0	0	0	0	0	0	0	0	0	0	33	34	0.2880924343630215	0.11455772606920003
0.0	0.0	0	0	0	0	0	0	0	0	0	0	0	0	34	35	0.3152943218663768	0.09324479203448649
0.0	0.0	0	0	0	0	0	0	0	0	0	0	0	0	34	35	0.3152943218663768	0.09324479203448649
0.0	0.0	0	0	0	0	0	0	0	0	0	0	0	0	35	36	0.3152943218663768	0.09324479203448649
0.0	0.0	0	0	0	0	0	0	0	0	0	0	0	0	36	37	0.3152943218663768	0.09324479203448649
0.0	0.0	0	0	0	0	0	0	0	0	0	0	0	0	36	37	0.3152943218663768	0.09324479203448649
0.0	0.0	0	0	0	0	0	0	0	0	0	0	0	0	37	38	0.3152943218663768	0.09324479203448649
0.0	0.0	0	0	0	0	0	0	0	0	0	0	0	0	37	38	0.3303640171306744	0.09087284854238804
0.0	0.0	0	0	0	0	0	0	0	0	0	0	0	0	38	39	0.3303640171306744	0.09087284854238804
0.0	0.0	0	0	0	0	0	0	0	0	0	0	0	0	39	40	0.3303640171306744	0.09087284854238804
0.0	0.0	0	0	0	0	0	0	0	0	0	0	0	0	39	40	0.3303640171306744	0.09087284854238804
0.0	0.0	0	0	0	0	0	0	0	0	0	0	0	0	40	41	0.3303640171306744	0.09087284854238804
0.0	0.0	0	0	0	0	0	0	0	0	0	0	0	0	40	41	0.3303640171306744	0.09087284854238804
0.0	0.0	0	0	0	0	0	0	0	0	0	0	0	0	41	42	0.3303640171306744	0.09087284854238804
0.0	0.0	0	0	0	0	0	0	0	0	0	0	0	0	41	42	0.3253873131856865	0.0977979706927921
0.0	0.0	0	0	0	0	0	0	0	0	0	0	0	0	42	43	0.3253873131856865	0.0977979706927921
0.0	0.0	0	0	0	0	0	0	0	0	0	0	0	0	43	44	0.3234705063428456	0.09798539364634773
0.0	0.0	0	0	0	0	0	0	0	0	0	0	0	0	43	44	0.3234705063428456	0.09798539364634773
0.0	0.0	0	0	0	0	0	0	0	0	0	0	0	0	44	45	0.3234705063428456	0.09798539364634773
0.0	0.0	0	0	0	0	0	0	0	0	0	0	0	0	44	45	0.3234705063428456	0.09798539364634773
0.0	0.0	0	0	0	0	0	0	0	0	0	0	0	0	45	46	0.3234705063428456	0.09798539364634773
0.0	0.0	0	0	0	0	0	0	0	0	0	0	0	0	46	47	0.3234705063428456	0.09798539364634773
0.0	0.0	0	0	0	0	0	0	0	0	0	0	0	0	46	47	0.3234705063428456	0.09798539364634773
0.0	0.0	0	0	0	0	0	0	0	0	0	0	0	0	47	48	0.30600877093876666	0.08758907133100996
0.0	0.0	0	0	0	0	0	0	0	0	0	0	0	0	47	48	0.30600877093876666	0.08758907133100996
0.0	0.0	0	0	0	0	0	0	0	0	0	0	0	0	48	49	0.30600877093876666	0.08758907133100996
0.0	0.0	0	0	0	0	0	0	0	0	0	0	0	0	48	49	0.30600877093876666	0.08758907133100996
0.0	0.0	0	0	0	0	0	0	0	0	0	0	0	0	49	50	0.30600877093876666	0.08758907133100996
0.0	0.0	0	0	0	0	0	0	0	0	0	0	0	0	50	51	0.30600877093876666	0.08758907133100996
0.0	0.0	0	0	0	0	0	0	0	0	0	0	0	0	50	51	0.30600877093876666	0.08758907133100996
0.0	0.0	0	0	0	0	0	0	0	0	0	0	0	0	51	52	0.2878688698440397	0.09634612345571798
0.0	0.0	0	0	0	0	0	0	0	0	0	0	0	0	51	52	0.2878688698440397	0.09634612345571798
0.0	0.0	0	0	0	0	0	0	0	0	0	0	0	0	52	53	0.2878688698440397	0.09634612345571798
0.0	0.0	0	0	0	0	0	0	0	0	0	0	0	0	53	54	0.2878688698440397	0.09634612345571798
0.0	0.0	0	0	0	0	0	0	0	0	0	0	0	0	53	54	0.2878688698440397	0.09634612345571798
0.0	0.0	0	0	0	0	0	0	0	0	0	0	0	0	54	55	0.2878688698440397	0.09634612345571798
0.0	0.0	0	0	0	0	0	0	0	0	0	0	0	0	54	55	0.2742238082023004	0.12571917913957775
0.0	0.0	0	0	0	0	0	0	0	0	0	0	0	0	55	56	0.2742238082023004	0.12571917913957775
0.0	0.0	0	0	0	0	0	0	0	0	0	0	0	0	56	57	0.2742238082023004	0.12571917913957775
0.0	0.0	0	0	0	0	0	0	0	0	0	0	0	0	56	57	0.2742238082023004	0.12571917913957775
0.0	0.0	0	0	0	0	0	0	0	0	0	0	0	0	57	58	0.2742238082023004	0.12571917913957775
0.0	0.0	0	0	0	0	0	0	0	0	0	0	0	0	57	58	0.2742238082023004	0.12571917913957775
0.0	0.0	0	0	0	0	0	0	0	0	0	0	0	0	58	59	0.2742238082023004	0.12571917913957775
0.0	0.0	0	0	0	0	0	0	0	0	0	0	0	0	58	59	0.266148249530936	0.14454095572639275
0.0	0.0	0	0	0	0	0	0	0	0	0	0	0	0	59	60	0.266148249530936	0.14454095572639275
0.0	0.0	0	0	0	0	0	0	0	0	0	0	0	0	60	61	0.266148249530936	0.14454095572639275
0.0	0.0	0	0	0	0	0	0	0	0	0	0	0	0	60	61	0.266148249530936	0.14454095572639275
0.0	0.0	0	0	0	0	0	0	0	0	0	0	0	0	61	62	0.266148249530936	0.14454095572639275
0.0	0.0	0	0	0	0	0	0	0	0	0	0	0	0	61	62	0.266148249530936	0.14454095572639275
